%
(--- PyCraft generated nc program ---)
G17 G21 G90 G94


(Operation: Contour1)
M3 S5000
G0 X33.34090758012323 Y-5.274292619290337 Z10
G1 X33.34090758012323 Y-5.274292619290337 Z6.35 F20
G1 X35.88221761373457 Y-5.892483395455116 Z6.344295900178253 F100
G1 X37.824675324675326 Y-6.0 Z6.338591800356506
G1 X38.63636363636363 Y-5.999999999999999 Z6.332887700534759
G1 X39.44805194805195 Y-6.0 Z6.3271836007130124
G1 X40.25974025974026 Y-5.999999999999999 Z6.321479500891265
G1 X41.07142857142857 Y-6.0 Z6.315775401069518
G1 X41.883116883116884 Y-6.0 Z6.310071301247771
G1 X42.69480519480519 Y-5.999999999999999 Z6.304367201426024
G1 X43.506493506493506 Y-6.0 Z6.298663101604277
G1 X44.31818181818182 Y-6.0 Z6.292959001782531
G1 X45.12987012987013 Y-6.0 Z6.287254901960784
G1 X45.94155844155844 Y-6.0 Z6.281550802139037
G1 X46.753246753246756 Y-5.999999999999999 Z6.27584670231729
G1 X47.564935064935064 Y-6.0 Z6.270142602495543
G1 X48.37662337662338 Y-6.0 Z6.264438502673796
G1 X49.188311688311686 Y-5.999999999999999 Z6.25873440285205
G1 X50.0 Y-6.0 Z6.253030303030303
G1 X50.811688311688314 Y-5.999999999999999 Z6.247326203208556
G1 X51.62337662337662 Y-6.0 Z6.241622103386809
G1 X52.435064935064936 Y-6.0 Z6.235918003565062
G1 X53.246753246753244 Y-5.999999999999999 Z6.230213903743315
G1 X54.05844155844156 Y-6.0 Z6.224509803921569
G1 X54.87012987012987 Y-5.999999999999999 Z6.218805704099822
G1 X55.68181818181818 Y-6.0 Z6.213101604278075
G1 X56.493506493506494 Y-6.0 Z6.207397504456328
G1 X57.3051948051948 Y-5.999999999999999 Z6.201693404634581
G1 X58.116883116883116 Y-6.0 Z6.195989304812834
G1 X58.92857142857143 Y-5.999999999999999 Z6.190285204991087
G1 X59.74025974025974 Y-6.0 Z6.1845811051693405
G1 X60.55194805194805 Y-6.0 Z6.178877005347593
G1 X61.36363636363636 Y-5.999999999999999 Z6.173172905525846
G1 X62.175324675324674 Y-5.999999999999999 Z6.167468805704099
G1 X62.98701298701299 Y-5.999999999999999 Z6.161764705882352
G1 X63.798701298701296 Y-6.0 Z6.156060606060605
G1 X64.6103896103896 Y-6.0 Z6.150356506238859
G1 X65.42207792207792 Y-6.0 Z6.144652406417112
G1 X66.23376623376623 Y-5.999999999999999 Z6.138948306595365
G1 X67.04545454545455 Y-6.0 Z6.133244206773618
G1 X67.85714285714286 Y-6.0 Z6.127540106951871
G1 X68.66883116883116 Y-6.0 Z6.121836007130124
G1 X69.48051948051948 Y-6.0 Z6.116131907308377
G1 X70.29220779220779 Y-6.000000000000001 Z6.110427807486631
G1 X71.1038961038961 Y-6.0 Z6.104723707664884
G1 X71.91558441558442 Y-6.0 Z6.099019607843137
G1 X72.72727272727272 Y-6.0 Z6.09331550802139
G1 X73.53896103896103 Y-6.0 Z6.087611408199643
G1 X74.35064935064935 Y-6.0 Z6.081907308377897
G1 X75.16233766233766 Y-6.0 Z6.07620320855615
G1 X75.97402597402598 Y-6.0 Z6.070499108734403
G1 X76.78571428571429 Y-6.0 Z6.064795008912656
G1 X77.59740259740259 Y-6.0 Z6.059090909090909
G1 X78.4090909090909 Y-6.0 Z6.053386809269162
G1 X79.22077922077922 Y-6.000000000000001 Z6.047682709447415
G1 X80.03246753246754 Y-6.0 Z6.0419786096256685
G1 X80.84415584415585 Y-6.0 Z6.036274509803921
G1 X81.65584415584415 Y-6.0 Z6.030570409982174
G1 X82.46753246753246 Y-6.0 Z6.024866310160427
G1 X83.27922077922078 Y-6.000000000000001 Z6.01916221033868
G1 X84.0909090909091 Y-6.0 Z6.013458110516933
G1 X84.90259740259741 Y-6.0 Z6.007754010695187
G1 X85.71428571428571 Y-6.0 Z6.00204991087344
G1 X86.52597402597402 Y-6.0 Z5.996345811051693
G1 X87.33766233766234 Y-6.000000000000001 Z5.990641711229946
G1 X88.14935064935065 Y-6.0 Z5.984937611408199
G1 X88.96103896103897 Y-6.0 Z5.979233511586452
G1 X89.77272727272727 Y-6.0 Z5.973529411764705
G1 X90.77621782022162 Y-5.9969335415977225 Z5.967825311942959
G1 X92.54534139069497 Y-5.888909337137567 Z5.962121212121212
G1 X94.84124550001982 Y-5.391189456664968 Z5.956417112299465
G1 X97.21886944378714 Y-4.12969270581008 Z5.950713012477718
G1 X98.82279109727737 Y-2.269603839429358 Z5.945008912655971
G1 X99.8310994792102 Y0.011308415947631545 Z5.939304812834224
G1 X100.21268417676131 Y2.253341898928415 Z5.933600713012478
G1 X100.56042130637316 Y4.149008641977957 Z5.927896613190731
G1 X100.74956217689552 Y5.882652736413818 Z5.922192513368984
G1 X100.99306867040202 Y7.284521895292324 Z5.916488413547237
G1 X101.15540633273969 Y8.842154294046217 Z5.91078431372549
G1 X101.39891282624617 Y10.244023452924722 Z5.905080213903743
G1 X101.56312683628612 Y11.815457575760622 Z5.8993761140819965
G1 X101.8066333297926 Y13.217326734639126 Z5.8936720142602494
G1 X101.96897099213027 Y14.77495913339302 Z5.887967914438502
G1 X102.21247748563677 Y16.332591532146914 Z5.882263814616755
G1 X102.37659854474879 Y17.903570114443763 Z5.876559714795008
G1 X102.62010503825528 Y19.305439273322268 Z5.870855614973261
G1 X102.78244270059294 Y20.863071672076167 Z5.865151515151515
G1 X103.02594919409944 Y22.420704070830062 Z5.859447415329768
G1 X103.18998331668706 Y23.991249106082545 Z5.853743315508021
G1 X103.43348981019355 Y25.54888150483644 Z5.848039215686274
G1 X103.59413101228125 Y27.093601267091742 Z5.842335115864527
G1 X103.83763750578774 Y28.651233665845638 Z5.83663101604278
G1 X103.9999751681254 Y30.20886606459953 Z5.830926916221033
G1 X104.2434816616319 Y31.610735223478038 Z5.825222816399287
G1 X104.40581932396957 Y33.16836762223192 Z5.81951871657754
G1 X104.64932581747605 Y34.726000020985815 Z5.813814616755793
G1 X104.81976913257812 Y36.34743949230089 Z5.808110516934046
G1 X105.06327562608462 Y37.90507189105479 Z5.802406417112299
G1 X105.23159912457164 Y39.51375785378539 Z5.796702317290552
G1 X105.3994953495402 Y41.122592322046316 Z5.790998217468806
G1 X105.57165395795103 Y42.78303109268287 Z5.785294117647059
G1 X105.73824749868693 Y44.392245787482096 Z5.779590017825312
G1 X105.82660471880183 Y46.05334500855813 Z5.773885918003565
G1 X105.91318188100306 Y47.714771255726106 Z5.768181818181818
G1 X105.99796441683948 Y49.376432149058445 Z5.762477718360071
G1 X105.99909504054396 Y50.98613761917022 Z5.756773618538324
G1 X106.0 Y52.64797507788162 Z5.7510695187165775
G1 X105.99909504054398 Y54.309812536593014 Z5.74536541889483
G1 X105.99638261705608 Y55.97155576500791 Z5.739661319073083
G1 X105.91070124453596 Y57.63311095828311 Z5.733957219251336
G1 X105.81941632985577 Y59.346071969527245 Z5.728253119429589
G1 X105.64812947568726 Y61.00675324454287 Z5.722549019607843
G1 X105.47510561807813 Y62.66692750447005 Z5.716844919786096
G1 X105.21920409590784 Y64.32650790326323 Z5.711140819964349
G1 X105.04063158176352 Y65.999939175745 Z5.705436720142602
G1 X104.77807969820014 Y67.67630028448754 Z5.699732620320855
G1 X104.52228137449346 Y69.30346894062032 Z5.694028520499108
G1 X104.18407465120355 Y70.77688680421714 Z5.688324420677361
G1 X103.83319793860848 Y72.305553244858 Z5.682620320855615
G1 X103.47876673633215 Y73.83704697293726 Z5.676916221033868
G1 X103.20173397252348 Y75.37126101861251 Z5.671212121212121
G1 X102.75837830288319 Y76.90806318047721 Z5.665508021390374
G1 X102.33685865186915 Y78.36295827044124 Z5.659803921568627
G1 X101.75933194009686 Y79.88562729861337 Z5.654099821746881
G1 X101.27231895308388 Y81.13173321761647 Z5.648395721925134
G1 X100.76210073423394 Y82.8068111208622 Z5.642691622103387
G1 X100.19391891605213 Y83.89715379998992 Z5.63698752228164
G1 X99.74807342036061 Y85.39419234080637 Z5.631283422459893
G1 X99.00999160196626 Y86.52511075245938 Z5.625579322638146
G1 X98.52297861495327 Y87.77121667146251 Z5.619875222816399
G1 X97.79747303350919 Y89.17028464274264 Z5.614171122994652
G1 X97.22929121532736 Y90.26062732187037 Z5.6084670231729055
G1 X96.53816967398438 Y91.56530930023199 Z5.602762923351158
G1 X95.8214477180884 Y92.60926760387571 Z5.597058823529411
G1 X95.02478944963225 Y93.76625310946983 Z5.591354723707664
G1 X94.21046589615885 Y94.92683571876944 Z5.585650623885917
G1 X93.4717113679692 Y95.97521108001962 Z5.579946524064171
G1 X92.64705421690567 Y96.86801510655606 Z5.574242424242424
G1 X91.75189134961546 Y97.83328415933283 Z5.568538324420677
G1 X90.83921967715426 Y98.80146492057645 Z5.56283422459893
G1 X89.94841536381682 Y99.73397357709067 Z5.557130124777183
G1 X89.13113037148602 Y100.43563945962127 Z5.551426024955436
G1 X88.06897452153802 Y101.33269826824106 Z5.545721925133689
G1 X87.1186340312038 Y101.96092558460231 Z5.540017825311943
G1 X86.104453936065 Y102.7702212128175 Z5.534313725490196
G1 X85.16307018737692 Y103.15950776018059 Z5.528609625668449
G1 X84.11702458853503 Y103.79817460218042 Z5.522905525846702
G1 X82.81473289053672 Y104.33043728251516 Z5.517201426024955
G1 X82.08421341001726 Y104.79772700214133 Z5.511497326203208
G1 X80.91427270545594 Y105.08272400369734 Z5.505793226381462
G1 X79.75766485893587 Y105.339356997729 Z5.500089126559715
G1 X78.38252803549102 Y105.76895731668513 Z5.494385026737968
G1 X77.38477228023334 Y105.95149364896912 Z5.488680926916221
G1 X76.38475732944666 Y105.97256995780589 Z5.482976827094474
G1 X75.19180223580605 Y105.99693354159773 Z5.477272727272727
G1 X74.18831168831169 Y106.0 Z5.4715686274509805
G1 X73.37662337662337 Y106.0 Z5.4658645276292335
G1 X72.56493506493507 Y106.0 Z5.4601604278074864
G1 X71.75324675324676 Y106.0 Z5.454456327985739
G1 X70.94155844155844 Y106.0 Z5.448752228163992
G1 X70.12987012987013 Y106.0 Z5.443048128342245
G1 X69.31818181818181 Y106.0 Z5.437344028520499
G1 X68.50649350649351 Y106.0 Z5.431639928698752
G1 X67.6948051948052 Y106.0 Z5.425935828877005
G1 X66.88311688311688 Y106.0 Z5.420231729055258
G1 X66.07142857142857 Y106.0 Z5.414527629233511
G1 X65.25974025974025 Y106.0 Z5.408823529411764
G1 X64.44805194805194 Y106.0 Z5.403119429590017
G1 X63.63636363636363 Y106.0 Z5.397415329768271
G1 X62.824675324675326 Y106.0 Z5.391711229946524
G1 X62.01298701298701 Y106.0 Z5.386007130124777
G1 X61.201298701298704 Y106.0 Z5.38030303030303
G1 X60.38961038961039 Y106.0 Z5.374598930481283
G1 X59.577922077922075 Y106.0 Z5.368894830659536
G1 X58.76623376623377 Y106.0 Z5.36319073083779
G1 X57.95454545454545 Y106.0 Z5.357486631016043
G1 X57.14285714285714 Y106.0 Z5.351782531194296
G1 X56.33116883116883 Y106.0 Z5.346078431372549
G1 X55.51948051948052 Y106.0 Z5.340374331550802
G1 X54.70779220779221 Y106.0 Z5.334670231729055
G1 X53.896103896103895 Y106.0 Z5.328966131907308
G1 X53.08441558441558 Y106.0 Z5.323262032085561
G1 X52.27272727272727 Y106.0 Z5.3175579322638145
G1 X51.46103896103896 Y106.0 Z5.311853832442067
G1 X50.64935064935065 Y106.0 Z5.30614973262032
G1 X49.83766233766234 Y106.0 Z5.300445632798573
G1 X49.02597402597402 Y106.0 Z5.294741532976826
G1 X48.214285714285715 Y106.0 Z5.28903743315508
G1 X47.4025974025974 Y106.0 Z5.283333333333333
G1 X46.59090909090909 Y106.0 Z5.277629233511586
G1 X45.77922077922078 Y106.0 Z5.271925133689839
G1 X44.967532467532465 Y106.0 Z5.266221033868092
G1 X43.38175652807348 Y105.94985616166747 Z5.260516934046345
G1 X41.02691790901347 Y105.5344745325945 Z5.254812834224598
G1 X38.67449017772195 Y104.5952160700309 Z5.249108734402852
G1 X36.745503543211406 Y102.60686483048427 Z5.243404634581105
G1 X35.56739987545943 Y99.85300233512757 Z5.237700534759358
G1 X35.098724086314064 Y97.30063719113178 Z5.231996434937611
G1 X35.078400691894075 Y94.8821738066884 Z5.226292335115864
G1 X35.5369636503623 Y92.92523816751914 Z5.220588235294118
G1 X35.92819249114105 Y91.14326648310653 Z5.214884135472371
G1 X36.40163840448641 Y89.45292740308686 Z5.209180035650624
G1 X36.71284958607218 Y88.10370986856609 Z5.203475935828877
G1 X37.05098905383706 Y86.64918908532985 Z5.19777183600713
G1 X37.42453579988731 Y85.37719748588336 Z5.192067736185383
G1 X37.67929752326685 Y84.3136381916543 Z5.186363636363636
G1 X38.0071490345079 Y83.55200482306667 Z5.1806595365418895
G1 X38.253569668613636 Y82.84418184055738 Z5.1749554367201425
G1 X38.3089926384321 Y82.50151396747191 Z5.169251336898395
G1 X38.64822075554995 Y83.3811063688691 Z5.163547237076648
G1 X40.62529632044918 Y84.75952246337332 Z5.157843137254901
G1 X43.35722591882658 Y85.25535090428933 Z5.152139037433155
G1 X44.510134124361976 Y85.19068828420791 Z5.146434937611408
G1 X44.65415474208933 Y85.25006305141756 Z5.140730837789661
G1 X44.252663027595304 Y85.92272658530368 Z5.135026737967914
G1 X43.52214354707582 Y86.70154278468063 Z5.129322638146167
G1 X42.72591732364145 Y87.55291032755711 Z5.12361853832442
G1 X41.88720568369649 Y88.44619550891092 Z5.117914438502673
G1 X41.15668620317701 Y89.22501170828787 Z5.112210338680926
G1 X40.35220669014128 Y89.92296024767926 Z5.10650623885918
G1 X39.543678218625274 Y90.77799999160013 Z5.100802139037433
G1 X38.730882896284356 Y91.63428510357042 Z5.095098039215686
G1 X37.91359790395355 Y92.33595098610104 Z5.089393939393939
G1 X36.99517230127091 Y93.11915013365777 Z5.083689839572193
G1 X36.1630581115958 Y93.82342101821166 Z5.077985739750446
G1 X35.17058208315186 Y94.48429007058361 Z5.072281639928699
G1 X34.321740804277376 Y95.0320660999893 Z5.066577540106952
G1 X33.2961870704938 Y95.83863548603729 Z5.060873440285205
G1 X32.30972820745916 Y96.24810437797358 Z5.055169340463458
G1 X31.401101249481002 Y96.80752865994641 Z5.049465240641711
G1 X30.103632679804146 Y97.33389698202872 Z5.043761140819964
G1 X29.1316011253233 Y97.70538481377682 Z5.038057040998217
G1 X27.78599065100034 Y98.18034331698243 Z5.0323529411764705
G1 X26.617782386265425 Y98.41584788143642 Z5.0266488413547235
G1 X25.248393693082996 Y98.65169768366258 Z5.020944741532976
G1 X23.863636363636363 Y98.67912772585669 Z5.015240641711229
G1 X22.668930235092382 Y98.66689002507758 Z5.009536541889483
G1 X21.1094903410073 Y98.41584788143642 Z5.003832442067736
G1 X19.768860490093953 Y98.1334801557517 Z4.998128342245989
G1 X18.466985012954787 Y97.8134393971477 Z4.992424242424242
G1 X17.174316435462263 Y97.1369947632672 Z4.986720142602495
G1 X15.800231370009035 Y96.35692331828336 Z4.981016042780748
G1 X14.508360683804172 Y95.553987187355 Z4.975311942959001
G1 X13.54771957538411 Y94.74345734028167 Z4.969607843137254
G1 X12.488702400767814 Y93.6612780046886 Z4.963903743315508
G1 X11.472807135456899 Y92.57803290674262 Z4.958199643493761
G1 X10.586730190472359 Y91.61384036350871 Z4.952495543672014
G1 X9.8479756622827 Y90.56546500225853 Z4.946791443850267
G1 X9.033652108809306 Y89.40488239295894 Z4.941087344028521
G1 X8.2684430535661 Y88.29721774542851 Z4.935383244206774
G1 X7.486228851890674 Y87.1466013089646 Z4.929679144385027
G1 X6.918047033708856 Y86.05625862983688 Z4.92397504456328
G1 X6.151078414837668 Y84.75572633988044 Z4.918270944741533
G1 X5.610585001760913 Y83.40700758917693 Z4.912566844919786
G1 X4.911095254986789 Y82.37159030895941 Z4.906862745098039
G1 X4.3532264563663645 Y80.97424080045974 Z4.901158645276292
G1 X3.785044638184546 Y79.88389812133201 Z4.895454545454545
G1 X3.215171993038785 Y78.4454404043513 Z4.8897504456327985
G1 X2.7281590060257983 Y77.19933448534817 Z4.8840463458110515
G1 X2.2038481078167598 Y75.86009946433377 Z4.878342245989304
G1 X1.7168351208037702 Y74.61399354533066 Z4.872638146167557
G1 X1.1950787232526734 Y73.27681557373971 Z4.866934046345811
G1 X0.6757329949680706 Y71.94170206496851 Z4.861229946524064
G1 X0.1887200079550837 Y70.6955961459654 Z4.855525846702317
G1 X-0.2471846055517677 Y69.20678297735537 Z4.84982174688057
G1 X-0.6809496355692337 Y67.72002520349331 Z4.844117647058823
G1 X-1.1938707820120973 Y66.39107150043131 Z4.838413547237076
G1 X-1.6152616520423733 Y64.93735816817299 Z4.832709447415329
G1 X-2.0211058078865274 Y63.53548900929449 Z4.827005347593582
G1 X-2.464357839460182 Y62.00122280690337 Z4.821301247771835
G1 X-2.8029070500590465 Y60.54707259691314 Z4.815597147950089
G1 X-3.2222153489927567 Y59.0925518136769 Z4.809893048128342
G1 X-3.5599355675009807 Y57.63767002589676 Z4.804188948306595
G1 X-3.914366769777313 Y56.10617629781751 Z4.798484848484848
G1 X-4.250378937430384 Y54.65112604025795 Z4.792780748663102
G1 X-4.585948925561189 Y53.19577297911658 Z4.787076648841355
G1 X-4.772001178031854 Y51.51190697968525 Z4.781372549019608
G1 X-5.1058758518277045 Y50.05659883465755 Z4.775668449197861
G1 X-5.376185553518907 Y48.47871798009708 Z4.769964349376114
G1 X-5.545606866137484 Y46.86764778224449 Z4.764260249554367
G1 X-5.8135913285254315 Y45.24096016837106 Z4.75855614973262
G1 X-5.912989038802635 Y43.4111275319154 Z4.752852049910873
G1 X-5.997744630173511 Y41.42428777859109 Z4.747147950089126
G1 X-5.933340661337756 Y39.139262185801584 Z4.7414438502673795
G1 X-5.560313035857373 Y36.670392692322366 Z4.7357397504456324
G1 X-4.44558195581239 Y34.05855621587363 Z4.730035650623885
G1 X-2.1733529486800744 Y31.769632241379668 Z4.724331550802138
G1 X1.3471565634942397 Y30.508313165595627 Z4.718627450980392
G1 X4.357035137529843 Y30.914848140605194 Z4.712923351158645
G1 X6.48227008064984 Y31.852907477125232 Z4.707219251336898
G1 X8.009211137394924 Y32.95124385413419 Z4.701515151515151
G1 X9.16834944833113 Y33.68367626778733 Z4.695811051693404
G1 X10.119011220056391 Y34.49691233406544 Z4.690106951871657
G1 X10.932406606826163 Y35.352343902500635 Z4.68440285204991
G1 X11.85473815122896 Y36.320159631275985 Z4.678698752228164
G1 X12.655380449228138 Y37.17247762975376 Z4.672994652406416
G1 X13.38589992974762 Y37.951293829130705 Z4.66729055258467
G1 X14.116419410267095 Y38.73011002850765 Z4.661586452762923
G1 X14.846938890786577 Y39.5089262278846 Z4.655882352941176
G1 X15.577458371306058 Y40.28774242726155 Z4.650178253119429
G1 X16.41175393668621 Y41.18007715301407 Z4.644474153297683
G1 X17.07656667429079 Y41.88634200889146 Z4.638770053475936
G1 X17.910309747659984 Y42.78022254497076 Z4.633065953654189
G1 X18.494777255404944 Y43.641782490630696 Z4.627361853832442
G1 X19.32791326573927 Y44.381443600394626 Z4.621657754010695
G1 X19.913245109942906 Y45.242563777217335 Z4.615953654188948
G1 X20.53661060804637 Y45.747844662870115 Z4.610249554367201
G1 X21.254517515145203 Y46.75704728813847 Z4.6045454545454545
G1 X21.87733560680204 Y47.26398063734621 Z4.5988413547237075
G1 X22.677216024940137 Y48.116871603907036 Z4.5931372549019605
G1 X23.2255833135179 Y48.706323241417316 Z4.587433155080213
G1 X24.030062826553632 Y49.560035020684076 Z4.581729055258466
G1 X24.68662227455686 Y50.26395564017121 Z4.576024955436719
G1 X25.339132764079814 Y50.81078505512883 Z4.570320855614973
G1 X25.98737640277787 Y51.512132341912434 Z4.564616755793226
G1 X26.631130371486027 Y52.056572378384935 Z4.558912655971479
G1 X27.228713542468213 Y52.56495671568089 Z4.553208556149732
G1 X27.719071980420946 Y52.9971320409915 Z4.547504456327985
G1 X28.30141892960272 Y53.511991517685594 Z4.541800356506238
G1 X28.842625772848113 Y53.79883992159202 Z4.536096256684492
G1 X29.36436838022561 Y54.09501556613148 Z4.530392156862745
G1 X29.72474396367187 Y54.336989322308035 Z4.524688057040998
G1 X30.075678521851554 Y54.464674910817536 Z4.518983957219251
G1 X30.206955248233577 Y54.581082099012505 Z4.513279857397504
G1 X30.090810024647876 Y54.604138012305576 Z4.507575757575758
G1 X29.936789318354187 Y54.6202614272561 Z4.501871657754011
G1 X29.61881634630408 Y54.68567196284663 Z4.496167557932264
G1 X29.43817021665979 Y54.76880359096599 Z4.490463458110517
G1 X29.327155875537915 Y54.817453269994274 Z4.48475935828877
G1 X29.49119530648231 Y54.66555046357173 Z4.479055258467023
G1 X29.68166174213105 Y54.467063971478694 Z4.473351158645276
G1 X29.98058308060798 Y54.009051274156526 Z4.467647058823529
G1 X30.42481325688332 Y53.40743846836642 Z4.4619429590017825
G1 X30.82919734196235 Y52.46801046493696 Z4.4562388591800355
G1 X31.159024439214463 Y51.56449251026937 Z4.4505347593582885
G1 X31.65311557473295 Y50.502711515085934 Z4.444830659536541
G1 X32.040608783799314 Y49.53720894516218 Z4.439126559714795
G1 X32.33830535061822 Y48.21996750971761 Z4.433422459893048
G1 X32.77040661819355 Y47.161340900870464 Z4.427718360071301
G1 X32.97908335230594 Y45.73610862246017 Z4.422014260249554
G1 X33.3849275081501 Y44.33423946358167 Z4.416310160427807
G1 X33.662092863796516 Y43.13681240090825 Z4.41060606060606
G1 X33.98676818847184 Y41.73494324202975 Z4.404901960784313
G1 X34.30048264478161 Y40.38542630974139 Z4.399197860962566
G1 X34.519926417714345 Y38.95198277277531 Z4.393493761140819
G1 X34.76343291122083 Y37.394350374021414 Z4.387789661319073
G1 X35.06721538373195 Y36.11376511038249 Z4.382085561497326
G1 X35.24111569810973 Y34.48718664227031 Z4.376381461675579
G1 X35.565791022785056 Y33.0853174833918 Z4.370677361853832
G1 X35.70839529882062 Y31.648599065482358 Z4.364973262032086
G1 X36.052804009798045 Y30.125815925759404 Z4.359269162210339
G1 X36.254700926688486 Y28.84621373414754 Z4.353565062388592
G1 X36.38237842376062 Y27.65419573453091 Z4.347860962566845
G1 X36.699109439726975 Y26.862741685442487 Z4.342156862745098
G1 X36.66205614877543 Y25.838600323583083 Z4.336452762923351
G1 X36.34132226468027 Y24.9347937790665 Z4.330748663101604
G1 X35.93019964677509 Y24.430291415111785 Z4.325044563279857
G1 X35.564237718206364 Y23.523650866202924 Z4.31934046345811
G1 X35.11452264238943 Y22.370674049211114 Z4.313636363636363
G1 X34.590211744180394 Y21.0314390281967 Z4.3079322638146165
G1 X34.103198757167405 Y19.78533310919358 Z4.3022281639928694
G1 X33.616185770154416 Y18.539227190190463 Z4.296524064171122
G1 X33.12917278314143 Y17.293121271187353 Z4.290819964349376
G1 X32.64215979612845 Y16.04701535218424 Z4.285115864527629
G1 X32.15514680911546 Y14.800909433181118 Z4.279411764705882
G1 X31.66813382210247 Y13.554803514178003 Z4.273707664884135
G1 X31.181120835089484 Y12.308697595174893 Z4.268003565062388
G1 X30.694107848076502 Y11.062591676171778 Z4.262299465240641
G1 X30.10365050439944 Y9.53065236135246 Z4.256595365418894
G1 X29.46173466535737 Y7.7338901435710525 Z4.250891265597147
G1 X28.85755395601153 Y5.797605786612052 Z4.2451871657754
G1 X28.66755534405405 Y3.263961402176224 Z4.239483065953653
G1 X28.96039066711817 Y1.1941519258326583 Z4.233778966131907
G1 X29.870326105635254 Y-1.5743733366921457 Z4.22807486631016
G1 X31.70507883591267 Y-3.9729091258305917 Z4.222370766488414
G1 X33.34090758012323 Y-5.274292619290337 Z4.216666666666667
G1 X35.88221761373457 Y-5.892483395455116 Z4.21096256684492
G1 X37.824675324675326 Y-6.0 Z4.205258467023173
G1 X38.63636363636363 Y-5.999999999999999 Z4.199554367201426
G1 X39.44805194805195 Y-6.0 Z4.19385026737968
G1 X40.25974025974026 Y-5.999999999999999 Z4.188146167557933
G1 X41.07142857142857 Y-6.0 Z4.1824420677361855
G1 X41.883116883116884 Y-6.0 Z4.1767379679144385
G1 X42.69480519480519 Y-5.999999999999999 Z4.1710338680926915
G1 X43.506493506493506 Y-6.0 Z4.1653297682709445
G1 X44.31818181818182 Y-6.0 Z4.159625668449198
G1 X45.12987012987013 Y-6.0 Z4.153921568627451
G1 X45.94155844155844 Y-6.0 Z4.148217468805704
G1 X46.753246753246756 Y-5.999999999999999 Z4.142513368983957
G1 X47.564935064935064 Y-6.0 Z4.13680926916221
G1 X48.37662337662338 Y-6.0 Z4.131105169340463
G1 X49.188311688311686 Y-5.999999999999999 Z4.125401069518717
G1 X50.0 Y-6.0 Z4.11969696969697
G1 X50.811688311688314 Y-5.999999999999999 Z4.113992869875223
G1 X51.62337662337662 Y-6.0 Z4.108288770053476
G1 X52.435064935064936 Y-6.0 Z4.102584670231729
G1 X53.246753246753244 Y-5.999999999999999 Z4.096880570409982
G1 X54.05844155844156 Y-6.0 Z4.091176470588236
G1 X54.87012987012987 Y-5.999999999999999 Z4.085472370766489
G1 X55.68181818181818 Y-6.0 Z4.079768270944742
G1 X56.493506493506494 Y-6.0 Z4.074064171122995
G1 X57.3051948051948 Y-5.999999999999999 Z4.068360071301248
G1 X58.116883116883116 Y-6.0 Z4.062655971479501
G1 X58.92857142857143 Y-5.999999999999999 Z4.056951871657754
G1 X59.74025974025974 Y-6.0 Z4.051247771836008
G1 X60.55194805194805 Y-6.0 Z4.045543672014261
G1 X61.36363636363636 Y-5.999999999999999 Z4.0398395721925136
G1 X62.175324675324674 Y-5.999999999999999 Z4.0341354723707665
G1 X62.98701298701299 Y-5.999999999999999 Z4.0284313725490195
G1 X63.798701298701296 Y-6.0 Z4.0227272727272725
G1 X64.6103896103896 Y-6.0 Z4.017023172905526
G1 X65.42207792207792 Y-6.0 Z4.011319073083779
G1 X66.23376623376623 Y-5.999999999999999 Z4.005614973262032
G1 X67.04545454545455 Y-6.0 Z3.9999108734402853
G1 X67.85714285714286 Y-6.0 Z3.9942067736185383
G1 X68.66883116883116 Y-6.0 Z3.9885026737967917
G1 X69.48051948051948 Y-6.0 Z3.9827985739750447
G1 X70.29220779220779 Y-6.000000000000001 Z3.9770944741532976
G1 X71.1038961038961 Y-6.0 Z3.971390374331551
G1 X71.91558441558442 Y-6.0 Z3.965686274509804
G1 X72.72727272727272 Y-6.0 Z3.959982174688057
G1 X73.53896103896103 Y-6.0 Z3.9542780748663104
G1 X74.35064935064935 Y-6.0 Z3.9485739750445634
G1 X75.16233766233766 Y-6.0 Z3.9428698752228164
G1 X75.97402597402598 Y-6.0 Z3.93716577540107
G1 X76.78571428571429 Y-6.0 Z3.931461675579323
G1 X77.59740259740259 Y-6.0 Z3.925757575757576
G1 X78.4090909090909 Y-6.0 Z3.9200534759358288
G1 X79.22077922077922 Y-6.000000000000001 Z3.914349376114082
G1 X80.03246753246754 Y-6.0 Z3.908645276292335
G1 X80.84415584415585 Y-6.0 Z3.9029411764705886
G1 X81.65584415584415 Y-6.0 Z3.8972370766488416
G1 X82.46753246753246 Y-6.0 Z3.8915329768270945
G1 X83.27922077922078 Y-6.000000000000001 Z3.8858288770053475
G1 X84.0909090909091 Y-6.0 Z3.880124777183601
G1 X84.90259740259741 Y-6.0 Z3.874420677361854
G1 X85.71428571428571 Y-6.0 Z3.8687165775401073
G1 X86.52597402597402 Y-6.0 Z3.8630124777183603
G1 X87.33766233766234 Y-6.000000000000001 Z3.8573083778966133
G1 X88.14935064935065 Y-6.0 Z3.8516042780748663
G1 X88.96103896103897 Y-6.0 Z3.8459001782531197
G1 X89.77272727272727 Y-6.0 Z3.8401960784313727
G1 X90.77621782022162 Y-5.9969335415977225 Z3.8344919786096257
G1 X92.54534139069497 Y-5.888909337137567 Z3.828787878787879
G1 X94.84124550001982 Y-5.391189456664968 Z3.823083778966132
G1 X97.21886944378714 Y-4.12969270581008 Z3.817379679144385
G1 X98.82279109727737 Y-2.269603839429358 Z3.8116755793226385
G1 X99.8310994792102 Y0.011308415947631545 Z3.8059714795008914
G1 X100.21268417676131 Y2.253341898928415 Z3.8002673796791444
G1 X100.56042130637316 Y4.149008641977957 Z3.794563279857398
G1 X100.74956217689552 Y5.882652736413818 Z3.788859180035651
G1 X100.99306867040202 Y7.284521895292324 Z3.783155080213904
G1 X101.15540633273969 Y8.842154294046217 Z3.777450980392157
G1 X101.39891282624617 Y10.244023452924722 Z3.77174688057041
G1 X101.56312683628612 Y11.815457575760622 Z3.766042780748663
G1 X101.8066333297926 Y13.217326734639126 Z3.7603386809269166
G1 X101.96897099213027 Y14.77495913339302 Z3.7546345811051696
G1 X102.21247748563677 Y16.332591532146914 Z3.7489304812834225
G1 X102.37659854474879 Y17.903570114443763 Z3.7432263814616755
G1 X102.62010503825528 Y19.305439273322268 Z3.737522281639929
G1 X102.78244270059294 Y20.863071672076167 Z3.731818181818182
G1 X103.02594919409944 Y22.420704070830062 Z3.726114081996435
G1 X103.18998331668706 Y23.991249106082545 Z3.7204099821746883
G1 X103.43348981019355 Y25.54888150483644 Z3.7147058823529413
G1 X103.59413101228125 Y27.093601267091742 Z3.7090017825311943
G1 X103.83763750578774 Y28.651233665845638 Z3.7032976827094473
G1 X103.9999751681254 Y30.20886606459953 Z3.6975935828877007
G1 X104.2434816616319 Y31.610735223478038 Z3.6918894830659537
G1 X104.40581932396957 Y33.16836762223192 Z3.686185383244207
G1 X104.64932581747605 Y34.726000020985815 Z3.68048128342246
G1 X104.81976913257812 Y36.34743949230089 Z3.674777183600713
G1 X105.06327562608462 Y37.90507189105479 Z3.669073083778966
G1 X105.23159912457164 Y39.51375785378539 Z3.6633689839572194
G1 X105.3994953495402 Y41.122592322046316 Z3.6576648841354724
G1 X105.57165395795103 Y42.78303109268287 Z3.651960784313726
G1 X105.73824749868693 Y44.392245787482096 Z3.646256684491979
G1 X105.82660471880183 Y46.05334500855813 Z3.640552584670232
G1 X105.91318188100306 Y47.714771255726106 Z3.6348484848484848
G1 X105.99796441683948 Y49.376432149058445 Z3.629144385026738
G1 X105.99909504054396 Y50.98613761917022 Z3.623440285204991
G1 X106.0 Y52.64797507788162 Z3.6177361853832446
G1 X105.99909504054398 Y54.309812536593014 Z3.6120320855614976
G1 X105.99638261705608 Y55.97155576500791 Z3.6063279857397506
G1 X105.91070124453596 Y57.63311095828311 Z3.6006238859180035
G1 X105.81941632985577 Y59.346071969527245 Z3.594919786096257
G1 X105.64812947568726 Y61.00675324454287 Z3.58921568627451
G1 X105.47510561807813 Y62.66692750447005 Z3.5835115864527634
G1 X105.21920409590784 Y64.32650790326323 Z3.5778074866310163
G1 X105.04063158176352 Y65.999939175745 Z3.5721033868092693
G1 X104.77807969820014 Y67.67630028448754 Z3.5663992869875223
G1 X104.52228137449346 Y69.30346894062032 Z3.5606951871657753
G1 X104.18407465120355 Y70.77688680421714 Z3.5549910873440287
G1 X103.83319793860848 Y72.305553244858 Z3.5492869875222817
G1 X103.47876673633215 Y73.83704697293726 Z3.543582887700535
G1 X103.20173397252348 Y75.37126101861251 Z3.537878787878788
G1 X102.75837830288319 Y76.90806318047721 Z3.532174688057041
G1 X102.33685865186915 Y78.36295827044124 Z3.526470588235294
G1 X101.75933194009686 Y79.88562729861337 Z3.5207664884135474
G1 X101.27231895308388 Y81.13173321761647 Z3.5150623885918004
G1 X100.76210073423394 Y82.8068111208622 Z3.509358288770054
G1 X100.19391891605213 Y83.89715379998992 Z3.503654188948307
G1 X99.74807342036061 Y85.39419234080637 Z3.49795008912656
G1 X99.00999160196626 Y86.52511075245938 Z3.492245989304813
G1 X98.52297861495327 Y87.77121667146251 Z3.486541889483066
G1 X97.79747303350919 Y89.17028464274264 Z3.480837789661319
G1 X97.22929121532736 Y90.26062732187037 Z3.4751336898395726
G1 X96.53816967398438 Y91.56530930023199 Z3.4694295900178256
G1 X95.8214477180884 Y92.60926760387571 Z3.4637254901960786
G1 X95.02478944963225 Y93.76625310946983 Z3.4580213903743315
G1 X94.21046589615885 Y94.92683571876944 Z3.4523172905525845
G1 X93.4717113679692 Y95.97521108001962 Z3.446613190730838
G1 X92.64705421690567 Y96.86801510655606 Z3.440909090909091
G1 X91.75189134961546 Y97.83328415933283 Z3.4352049910873443
G1 X90.83921967715426 Y98.80146492057645 Z3.4295008912655973
G1 X89.94841536381682 Y99.73397357709067 Z3.4237967914438503
G1 X89.13113037148602 Y100.43563945962127 Z3.4180926916221033
G1 X88.06897452153802 Y101.33269826824106 Z3.4123885918003567
G1 X87.1186340312038 Y101.96092558460231 Z3.4066844919786097
G1 X86.104453936065 Y102.7702212128175 Z3.400980392156863
G1 X85.16307018737692 Y103.15950776018059 Z3.395276292335116
G1 X84.11702458853503 Y103.79817460218042 Z3.389572192513369
G1 X82.81473289053672 Y104.33043728251516 Z3.383868092691622
G1 X82.08421341001726 Y104.79772700214133 Z3.378163992869875
G1 X80.91427270545594 Y105.08272400369734 Z3.3724598930481284
G1 X79.75766485893587 Y105.339356997729 Z3.3667557932263814
G1 X78.38252803549102 Y105.76895731668513 Z3.361051693404635
G1 X77.38477228023334 Y105.95149364896912 Z3.355347593582888
G1 X76.38475732944666 Y105.97256995780589 Z3.349643493761141
G1 X75.19180223580605 Y105.99693354159773 Z3.343939393939394
G1 X74.18831168831169 Y106.0 Z3.338235294117647
G1 X73.37662337662337 Y106.0 Z3.3325311942959
G1 X72.56493506493507 Y106.0 Z3.3268270944741536
G1 X71.75324675324676 Y106.0 Z3.3211229946524066
G1 X70.94155844155844 Y106.0 Z3.3154188948306595
G1 X70.12987012987013 Y106.0 Z3.309714795008913
G1 X69.31818181818181 Y106.0 Z3.304010695187166
G1 X68.50649350649351 Y106.0 Z3.298306595365419
G1 X67.6948051948052 Y106.0 Z3.2926024955436723
G1 X66.88311688311688 Y106.0 Z3.2868983957219253
G1 X66.07142857142857 Y106.0 Z3.2811942959001783
G1 X65.25974025974025 Y106.0 Z3.2754901960784313
G1 X64.44805194805194 Y106.0 Z3.2697860962566847
G1 X63.63636363636363 Y106.0 Z3.2640819964349377
G1 X62.824675324675326 Y106.0 Z3.258377896613191
G1 X62.01298701298701 Y106.0 Z3.252673796791444
G1 X61.201298701298704 Y106.0 Z3.246969696969697
G1 X60.38961038961039 Y106.0 Z3.24126559714795
G1 X59.577922077922075 Y106.0 Z3.2355614973262035
G1 X58.76623376623377 Y106.0 Z3.2298573975044564
G1 X57.95454545454545 Y106.0 Z3.22415329768271
G1 X57.14285714285714 Y106.0 Z3.218449197860963
G1 X56.33116883116883 Y106.0 Z3.212745098039216
G1 X55.51948051948052 Y106.0 Z3.207040998217469
G1 X54.70779220779221 Y106.0 Z3.2013368983957218
G1 X53.896103896103895 Y106.0 Z3.195632798573975
G1 X53.08441558441558 Y106.0 Z3.189928698752228
G1 X52.27272727272727 Y106.0 Z3.1842245989304816
G1 X51.46103896103896 Y106.0 Z3.1785204991087346
G1 X50.64935064935065 Y106.0 Z3.1728163992869876
G1 X49.83766233766234 Y106.0 Z3.1671122994652405
G1 X49.02597402597402 Y106.0 Z3.1614081996434935
G1 X48.214285714285715 Y106.0 Z3.155704099821747
G1 X47.4025974025974 Y106.0 Z3.1500000000000004
G1 X46.59090909090909 Y106.0 Z3.1442959001782533
G1 X45.77922077922078 Y106.0 Z3.1385918003565063
G1 X44.967532467532465 Y106.0 Z3.1328877005347593
G1 X43.38175652807348 Y105.94985616166747 Z3.1271836007130127
G1 X41.02691790901347 Y105.5344745325945 Z3.1214795008912657
G1 X38.67449017772195 Y104.5952160700309 Z3.115775401069519
G1 X36.745503543211406 Y102.60686483048427 Z3.110071301247772
G1 X35.56739987545943 Y99.85300233512757 Z3.104367201426025
G1 X35.098724086314064 Y97.30063719113178 Z3.098663101604278
G1 X35.078400691894075 Y94.8821738066884 Z3.092959001782531
G1 X35.5369636503623 Y92.92523816751914 Z3.0872549019607844
G1 X35.92819249114105 Y91.14326648310653 Z3.081550802139038
G1 X36.40163840448641 Y89.45292740308686 Z3.075846702317291
G1 X36.71284958607218 Y88.10370986856609 Z3.070142602495544
G1 X37.05098905383706 Y86.64918908532985 Z3.064438502673797
G1 X37.42453579988731 Y85.37719748588336 Z3.05873440285205
G1 X37.67929752326685 Y84.3136381916543 Z3.053030303030303
G1 X38.0071490345079 Y83.55200482306667 Z3.0473262032085566
G1 X38.253569668613636 Y82.84418184055738 Z3.0416221033868096
G1 X38.3089926384321 Y82.50151396747191 Z3.0359180035650626
G1 X38.64822075554995 Y83.3811063688691 Z3.0302139037433156
G1 X40.62529632044918 Y84.75952246337332 Z3.0245098039215685
G1 X43.35722591882658 Y85.25535090428933 Z3.018805704099822
G1 X44.510134124361976 Y85.19068828420791 Z3.013101604278075
G1 X44.65415474208933 Y85.25006305141756 Z3.0073975044563284
G1 X44.252663027595304 Y85.92272658530368 Z3.0016934046345813
G1 X43.52214354707582 Y86.70154278468063 Z2.9959893048128343
G1 X42.72591732364145 Y87.55291032755711 Z2.9902852049910873
G1 X41.88720568369649 Y88.44619550891092 Z2.9845811051693403
G1 X41.15668620317701 Y89.22501170828787 Z2.9788770053475937
G1 X40.35220669014128 Y89.92296024767926 Z2.973172905525847
G1 X39.543678218625274 Y90.77799999160013 Z2.9674688057041
G1 X38.730882896284356 Y91.63428510357042 Z2.961764705882353
G1 X37.91359790395355 Y92.33595098610104 Z2.956060606060606
G1 X36.99517230127091 Y93.11915013365777 Z2.9503565062388595
G1 X36.1630581115958 Y93.82342101821166 Z2.9446524064171125
G1 X35.17058208315186 Y94.48429007058361 Z2.9389483065953654
G1 X34.321740804277376 Y95.0320660999893 Z2.933244206773619
G1 X33.2961870704938 Y95.83863548603729 Z2.927540106951872
G1 X32.30972820745916 Y96.24810437797358 Z2.921836007130125
G1 X31.401101249481002 Y96.80752865994641 Z2.916131907308378
G1 X30.103632679804146 Y97.33389698202872 Z2.910427807486631
G1 X29.1316011253233 Y97.70538481377682 Z2.904723707664884
G1 X27.78599065100034 Y98.18034331698243 Z2.8990196078431376
G1 X26.617782386265425 Y98.41584788143642 Z2.8933155080213906
G1 X25.248393693082996 Y98.65169768366258 Z2.8876114081996436
G1 X23.863636363636363 Y98.67912772585669 Z2.8819073083778965
G1 X22.668930235092382 Y98.66689002507758 Z2.87620320855615
G1 X21.1094903410073 Y98.41584788143642 Z2.870499108734403
G1 X19.768860490093953 Y98.1334801557517 Z2.8647950089126564
G1 X18.466985012954787 Y97.8134393971477 Z2.8590909090909093
G1 X17.174316435462263 Y97.1369947632672 Z2.8533868092691623
G1 X15.800231370009035 Y96.35692331828336 Z2.8476827094474153
G1 X14.508360683804172 Y95.553987187355 Z2.8419786096256683
G1 X13.54771957538411 Y94.74345734028167 Z2.8362745098039217
G1 X12.488702400767814 Y93.6612780046886 Z2.830570409982175
G1 X11.472807135456899 Y92.57803290674262 Z2.824866310160428
G1 X10.586730190472359 Y91.61384036350871 Z2.819162210338681
G1 X9.8479756622827 Y90.56546500225853 Z2.813458110516934
G1 X9.033652108809306 Y89.40488239295894 Z2.8077540106951875
G1 X8.2684430535661 Y88.29721774542851 Z2.8020499108734405
G1 X7.486228851890674 Y87.1466013089646 Z2.7963458110516934
G1 X6.918047033708856 Y86.05625862983688 Z2.790641711229947
G1 X6.151078414837668 Y84.75572633988044 Z2.7849376114082
G1 X5.610585001760913 Y83.40700758917693 Z2.779233511586453
G1 X4.911095254986789 Y82.37159030895941 Z2.773529411764706
G1 X4.3532264563663645 Y80.97424080045974 Z2.7678253119429588
G1 X3.785044638184546 Y79.88389812133201 Z2.762121212121212
G1 X3.215171993038785 Y78.4454404043513 Z2.7564171122994656
G1 X2.7281590060257983 Y77.19933448534817 Z2.7507130124777186
G1 X2.2038481078167598 Y75.86009946433377 Z2.7450089126559716
G1 X1.7168351208037702 Y74.61399354533066 Z2.7393048128342246
G1 X1.1950787232526734 Y73.27681557373971 Z2.733600713012478
G1 X0.6757329949680706 Y71.94170206496851 Z2.7278966131907314
G1 X0.1887200079550837 Y70.6955961459654 Z2.7221925133689844
G1 X-0.2471846055517677 Y69.20678297735537 Z2.7164884135472374
G1 X-0.6809496355692337 Y67.72002520349331 Z2.7107843137254903
G1 X-1.1938707820120973 Y66.39107150043131 Z2.7050802139037433
G1 X-1.6152616520423733 Y64.93735816817299 Z2.6993761140819963
G1 X-2.0211058078865274 Y63.53548900929449 Z2.6936720142602497
G1 X-2.464357839460182 Y62.00122280690337 Z2.6879679144385027
G1 X-2.8029070500590465 Y60.54707259691314 Z2.682263814616756
G1 X-3.2222153489927567 Y59.0925518136769 Z2.676559714795009
G1 X-3.5599355675009807 Y57.63767002589676 Z2.670855614973262
G1 X-3.914366769777313 Y56.10617629781751 Z2.665151515151515
G1 X-4.250378937430384 Y54.65112604025795 Z2.6594474153297685
G1 X-4.585948925561189 Y53.19577297911658 Z2.653743315508022
G1 X-4.772001178031854 Y51.51190697968525 Z2.648039215686275
G1 X-5.1058758518277045 Y50.05659883465755 Z2.642335115864528
G1 X-5.376185553518907 Y48.47871798009708 Z2.636631016042781
G1 X-5.545606866137484 Y46.86764778224449 Z2.6309269162210343
G1 X-5.8135913285254315 Y45.24096016837106 Z2.625222816399287
G1 X-5.912989038802635 Y43.4111275319154 Z2.61951871657754
G1 X-5.997744630173511 Y41.42428777859109 Z2.613814616755793
G1 X-5.933340661337756 Y39.139262185801584 Z2.6081105169340466
G1 X-5.560313035857373 Y36.670392692322366 Z2.6024064171122996
G1 X-4.44558195581239 Y34.05855621587363 Z2.5967023172905526
G1 X-2.1733529486800744 Y31.769632241379668 Z2.5909982174688055
G1 X1.3471565634942397 Y30.508313165595627 Z2.585294117647059
G1 X4.357035137529843 Y30.914848140605194 Z2.5795900178253124
G1 X6.48227008064984 Y31.852907477125232 Z2.5738859180035654
G1 X8.009211137394924 Y32.95124385413419 Z2.5681818181818183
G1 X9.16834944833113 Y33.68367626778733 Z2.5624777183600713
G1 X10.119011220056391 Y34.49691233406544 Z2.5567736185383247
G1 X10.932406606826163 Y35.352343902500635 Z2.5510695187165777
G1 X11.85473815122896 Y36.320159631275985 Z2.545365418894831
G1 X12.655380449228138 Y37.17247762975376 Z2.5396613190730837
G1 X13.38589992974762 Y37.951293829130705 Z2.533957219251337
G1 X14.116419410267095 Y38.73011002850765 Z2.52825311942959
G1 X14.846938890786577 Y39.5089262278846 Z2.522549019607843
G1 X15.577458371306058 Y40.28774242726155 Z2.516844919786096
G1 X16.41175393668621 Y41.18007715301407 Z2.5111408199643495
G1 X17.07656667429079 Y41.88634200889146 Z2.505436720142603
G1 X17.910309747659984 Y42.78022254497076 Z2.499732620320856
G1 X18.494777255404944 Y43.641782490630696 Z2.494028520499109
G1 X19.32791326573927 Y44.381443600394626 Z2.488324420677362
G1 X19.913245109942906 Y45.242563777217335 Z2.4826203208556152
G1 X20.53661060804637 Y45.747844662870115 Z2.476916221033868
G1 X21.254517515145203 Y46.75704728813847 Z2.4712121212121216
G1 X21.87733560680204 Y47.26398063734621 Z2.4655080213903746
G1 X22.677216024940137 Y48.116871603907036 Z2.4598039215686276
G1 X23.2255833135179 Y48.706323241417316 Z2.4540998217468806
G1 X24.030062826553632 Y49.560035020684076 Z2.4483957219251336
G1 X24.68662227455686 Y50.26395564017121 Z2.4426916221033865
G1 X25.339132764079814 Y50.81078505512883 Z2.43698752228164
G1 X25.98737640277787 Y51.512132341912434 Z2.4312834224598934
G1 X26.631130371486027 Y52.056572378384935 Z2.4255793226381464
G1 X27.228713542468213 Y52.56495671568089 Z2.4198752228163993
G1 X27.719071980420946 Y52.9971320409915 Z2.4141711229946523
G1 X28.30141892960272 Y53.511991517685594 Z2.4084670231729057
G1 X28.842625772848113 Y53.79883992159202 Z2.402762923351159
G1 X29.36436838022561 Y54.09501556613148 Z2.397058823529412
G1 X29.72474396367187 Y54.336989322308035 Z2.391354723707665
G1 X30.075678521851554 Y54.464674910817536 Z2.385650623885918
G1 X30.206955248233577 Y54.581082099012505 Z2.379946524064171
G1 X30.090810024647876 Y54.604138012305576 Z2.3742424242424245
G1 X29.936789318354187 Y54.6202614272561 Z2.3685383244206775
G1 X29.61881634630408 Y54.68567196284663 Z2.3628342245989304
G1 X29.43817021665979 Y54.76880359096599 Z2.357130124777184
G1 X29.327155875537915 Y54.817453269994274 Z2.351426024955437
G1 X29.49119530648231 Y54.66555046357173 Z2.34572192513369
G1 X29.68166174213105 Y54.467063971478694 Z2.340017825311943
G1 X29.98058308060798 Y54.009051274156526 Z2.3343137254901962
G1 X30.42481325688332 Y53.40743846836642 Z2.3286096256684496
G1 X30.82919734196235 Y52.46801046493696 Z2.3229055258467026
G1 X31.159024439214463 Y51.56449251026937 Z2.3172014260249556
G1 X31.65311557473295 Y50.502711515085934 Z2.3114973262032086
G1 X32.040608783799314 Y49.53720894516218 Z2.305793226381462
G1 X32.33830535061822 Y48.21996750971761 Z2.300089126559715
G1 X32.77040661819355 Y47.161340900870464 Z2.2943850267379684
G1 X32.97908335230594 Y45.73610862246017 Z2.2886809269162214
G1 X33.3849275081501 Y44.33423946358167 Z2.2829768270944744
G1 X33.662092863796516 Y43.13681240090825 Z2.2772727272727273
G1 X33.98676818847184 Y41.73494324202975 Z2.2715686274509803
G1 X34.30048264478161 Y40.38542630974139 Z2.2658645276292333
G1 X34.519926417714345 Y38.95198277277531 Z2.2601604278074867
G1 X34.76343291122083 Y37.394350374021414 Z2.25445632798574
G1 X35.06721538373195 Y36.11376511038249 Z2.248752228163993
G1 X35.24111569810973 Y34.48718664227031 Z2.243048128342246
G1 X35.565791022785056 Y33.0853174833918 Z2.237344028520499
G1 X35.70839529882062 Y31.648599065482358 Z2.2316399286987525
G1 X36.052804009798045 Y30.125815925759404 Z2.2259358288770055
G1 X36.254700926688486 Y28.84621373414754 Z2.220231729055259
G1 X36.38237842376062 Y27.65419573453091 Z2.214527629233512
G1 X36.699109439726975 Y26.862741685442487 Z2.208823529411765
G1 X36.66205614877543 Y25.838600323583083 Z2.2031194295900183
G1 X36.34132226468027 Y24.9347937790665 Z2.197415329768271
G1 X35.93019964677509 Y24.430291415111785 Z2.1917112299465242
G1 X35.564237718206364 Y23.523650866202924 Z2.186007130124777
G1 X35.11452264238943 Y22.370674049211114 Z2.18030303030303
G1 X34.590211744180394 Y21.0314390281967 Z2.1745989304812836
G1 X34.103198757167405 Y19.78533310919358 Z2.1688948306595366
G1 X33.616185770154416 Y18.539227190190463 Z2.1631907308377896
G1 X33.12917278314143 Y17.293121271187353 Z2.157486631016043
G1 X32.64215979612845 Y16.04701535218424 Z2.151782531194296
G1 X32.15514680911546 Y14.800909433181118 Z2.1460784313725494
G1 X31.66813382210247 Y13.554803514178003 Z2.1403743315508024
G1 X31.181120835089484 Y12.308697595174893 Z2.1346702317290553
G1 X30.694107848076502 Y11.062591676171778 Z2.1289661319073088
G1 X30.10365050439944 Y9.53065236135246 Z2.1232620320855617
G1 X29.46173466535737 Y7.7338901435710525 Z2.1175579322638147
G1 X28.85755395601153 Y5.797605786612052 Z2.1118538324420677
G1 X28.66755534405405 Y3.263961402176224 Z2.1061497326203207
G1 X28.96039066711817 Y1.1941519258326583 Z2.100445632798574
G1 X29.870326105635254 Y-1.5743733366921457 Z2.094741532976827
G1 X31.70507883591267 Y-3.9729091258305917 Z2.0890374331550805
G1 X33.34090758012323 Y-5.274292619290337 Z2.083333333333333
G1 X35.88221761373457 Y-5.892483395455116 Z2.077629233511586
G1 X37.824675324675326 Y-6.0 Z2.0719251336898394
G1 X38.63636363636363 Y-5.999999999999999 Z2.0662210338680924
G1 X39.44805194805195 Y-6.0 Z2.0605169340463454
G1 X40.25974025974026 Y-5.999999999999999 Z2.054812834224599
G1 X41.07142857142857 Y-6.0 Z2.049108734402852
G1 X41.883116883116884 Y-6.0 Z2.0434046345811048
G1 X42.69480519480519 Y-5.999999999999999 Z2.037700534759358
G1 X43.506493506493506 Y-6.0 Z2.031996434937611
G1 X44.31818181818182 Y-6.0 Z2.026292335115864
G1 X45.12987012987013 Y-6.0 Z2.0205882352941176
G1 X45.94155844155844 Y-6.0 Z2.0148841354723706
G1 X46.753246753246756 Y-5.999999999999999 Z2.0091800356506235
G1 X47.564935064935064 Y-6.0 Z2.0034759358288765
G1 X48.37662337662338 Y-6.0 Z1.99777183600713
G1 X49.188311688311686 Y-5.999999999999999 Z1.992067736185383
G1 X50.0 Y-6.0 Z1.986363636363636
G1 X50.811688311688314 Y-5.999999999999999 Z1.980659536541889
G1 X51.62337662337662 Y-6.0 Z1.9749554367201423
G1 X52.435064935064936 Y-6.0 Z1.9692513368983955
G1 X53.246753246753244 Y-5.999999999999999 Z1.9635472370766485
G1 X54.05844155844156 Y-6.0 Z1.9578431372549017
G1 X54.87012987012987 Y-5.999999999999999 Z1.9521390374331549
G1 X55.68181818181818 Y-6.0 Z1.9464349376114078
G1 X56.493506493506494 Y-6.0 Z1.940730837789661
G1 X57.3051948051948 Y-5.999999999999999 Z1.935026737967914
G1 X58.116883116883116 Y-6.0 Z1.9293226381461672
G1 X58.92857142857143 Y-5.999999999999999 Z1.9236185383244204
G1 X59.74025974025974 Y-6.0 Z1.9179144385026734
G1 X60.55194805194805 Y-6.0 Z1.9122103386809266
G1 X61.36363636363636 Y-5.999999999999999 Z1.9065062388591798
G1 X62.175324675324674 Y-5.999999999999999 Z1.9008021390374328
G1 X62.98701298701299 Y-5.999999999999999 Z1.895098039215686
G1 X63.798701298701296 Y-6.0 Z1.8893939393939392
G1 X64.6103896103896 Y-6.0 Z1.8836898395721922
G1 X65.42207792207792 Y-6.0 Z1.8779857397504454
G1 X66.23376623376623 Y-5.999999999999999 Z1.8722816399286986
G1 X67.04545454545455 Y-6.0 Z1.8665775401069515
G1 X67.85714285714286 Y-6.0 Z1.8608734402852047
G1 X68.66883116883116 Y-6.0 Z1.855169340463458
G1 X69.48051948051948 Y-6.0 Z1.849465240641711
G1 X70.29220779220779 Y-6.000000000000001 Z1.8437611408199641
G1 X71.1038961038961 Y-6.0 Z1.838057040998217
G1 X71.91558441558442 Y-6.0 Z1.8323529411764703
G1 X72.72727272727272 Y-6.0 Z1.8266488413547233
G1 X73.53896103896103 Y-6.0 Z1.8209447415329765
G1 X74.35064935064935 Y-6.0 Z1.8152406417112297
G1 X75.16233766233766 Y-6.0 Z1.8095365418894827
G1 X75.97402597402598 Y-6.0 Z1.8038324420677359
G1 X76.78571428571429 Y-6.0 Z1.798128342245989
G1 X77.59740259740259 Y-6.0 Z1.792424242424242
G1 X78.4090909090909 Y-6.0 Z1.7867201426024952
G1 X79.22077922077922 Y-6.000000000000001 Z1.7810160427807484
G1 X80.03246753246754 Y-6.0 Z1.7753119429590014
G1 X80.84415584415585 Y-6.0 Z1.7696078431372546
G1 X81.65584415584415 Y-6.0 Z1.7639037433155078
G1 X82.46753246753246 Y-6.0 Z1.7581996434937608
G1 X83.27922077922078 Y-6.000000000000001 Z1.752495543672014
G1 X84.0909090909091 Y-6.0 Z1.7467914438502672
G1 X84.90259740259741 Y-6.0 Z1.7410873440285202
G1 X85.71428571428571 Y-6.0 Z1.7353832442067734
G1 X86.52597402597402 Y-6.0 Z1.7296791443850266
G1 X87.33766233766234 Y-6.000000000000001 Z1.7239750445632795
G1 X88.14935064935065 Y-6.0 Z1.7182709447415327
G1 X88.96103896103897 Y-6.0 Z1.712566844919786
G1 X89.77272727272727 Y-6.0 Z1.706862745098039
G1 X90.77621782022162 Y-5.9969335415977225 Z1.701158645276292
G1 X92.54534139069497 Y-5.888909337137567 Z1.695454545454545
G1 X94.84124550001982 Y-5.391189456664968 Z1.6897504456327983
G1 X97.21886944378714 Y-4.12969270581008 Z1.6840463458110513
G1 X98.82279109727737 Y-2.269603839429358 Z1.6783422459893045
G1 X99.8310994792102 Y0.011308415947631545 Z1.6726381461675577
G1 X100.21268417676131 Y2.253341898928415 Z1.6669340463458107
G1 X100.56042130637316 Y4.149008641977957 Z1.6612299465240639
G1 X100.74956217689552 Y5.882652736413818 Z1.655525846702317
G1 X100.99306867040202 Y7.284521895292324 Z1.64982174688057
G1 X101.15540633273969 Y8.842154294046217 Z1.6441176470588232
G1 X101.39891282624617 Y10.244023452924722 Z1.6384135472370764
G1 X101.56312683628612 Y11.815457575760622 Z1.6327094474153294
G1 X101.8066333297926 Y13.217326734639126 Z1.6270053475935826
G1 X101.96897099213027 Y14.77495913339302 Z1.6213012477718358
G1 X102.21247748563677 Y16.332591532146914 Z1.6155971479500888
G1 X102.37659854474879 Y17.903570114443763 Z1.609893048128342
G1 X102.62010503825528 Y19.305439273322268 Z1.6041889483065952
G1 X102.78244270059294 Y20.863071672076167 Z1.5984848484848482
G1 X103.02594919409944 Y22.420704070830062 Z1.5927807486631014
G1 X103.18998331668706 Y23.991249106082545 Z1.5870766488413546
G1 X103.43348981019355 Y25.54888150483644 Z1.5813725490196076
G1 X103.59413101228125 Y27.093601267091742 Z1.5756684491978605
G1 X103.83763750578774 Y28.651233665845638 Z1.5699643493761137
G1 X103.9999751681254 Y30.20886606459953 Z1.564260249554367
G1 X104.2434816616319 Y31.610735223478038 Z1.55855614973262
G1 X104.40581932396957 Y33.16836762223192 Z1.5528520499108731
G1 X104.64932581747605 Y34.726000020985815 Z1.5471479500891263
G1 X104.81976913257812 Y36.34743949230089 Z1.5414438502673793
G1 X105.06327562608462 Y37.90507189105479 Z1.5357397504456325
G1 X105.23159912457164 Y39.51375785378539 Z1.5300356506238857
G1 X105.3994953495402 Y41.122592322046316 Z1.5243315508021387
G1 X105.57165395795103 Y42.78303109268287 Z1.5186274509803919
G1 X105.73824749868693 Y44.392245787482096 Z1.512923351158645
G1 X105.82660471880183 Y46.05334500855813 Z1.507219251336898
G1 X105.91318188100306 Y47.714771255726106 Z1.5015151515151512
G1 X105.99796441683948 Y49.376432149058445 Z1.4958110516934044
G1 X105.99909504054396 Y50.98613761917022 Z1.4901069518716574
G1 X106.0 Y52.64797507788162 Z1.4844028520499106
G1 X105.99909504054398 Y54.309812536593014 Z1.4786987522281638
G1 X105.99638261705608 Y55.97155576500791 Z1.4729946524064168
G1 X105.91070124453596 Y57.63311095828311 Z1.4672905525846698
G1 X105.81941632985577 Y59.346071969527245 Z1.4615864527629232
G1 X105.64812947568726 Y61.00675324454287 Z1.4558823529411762
G1 X105.47510561807813 Y62.66692750447005 Z1.4501782531194294
G1 X105.21920409590784 Y64.32650790326323 Z1.4444741532976824
G1 X105.04063158176352 Y65.999939175745 Z1.4387700534759356
G1 X104.77807969820014 Y67.67630028448754 Z1.4330659536541885
G1 X104.52228137449346 Y69.30346894062032 Z1.4273618538324417
G1 X104.18407465120355 Y70.77688680421714 Z1.421657754010695
G1 X103.83319793860848 Y72.305553244858 Z1.415953654188948
G1 X103.47876673633215 Y73.83704697293726 Z1.4102495543672011
G1 X103.20173397252348 Y75.37126101861251 Z1.4045454545454543
G1 X102.75837830288319 Y76.90806318047721 Z1.3988413547237073
G1 X102.33685865186915 Y78.36295827044124 Z1.3931372549019605
G1 X101.75933194009686 Y79.88562729861337 Z1.3874331550802137
G1 X101.27231895308388 Y81.13173321761647 Z1.3817290552584667
G1 X100.76210073423394 Y82.8068111208622 Z1.3760249554367199
G1 X100.19391891605213 Y83.89715379998992 Z1.370320855614973
G1 X99.74807342036061 Y85.39419234080637 Z1.364616755793226
G1 X99.00999160196626 Y86.52511075245938 Z1.358912655971479
G1 X98.52297861495327 Y87.77121667146251 Z1.3532085561497325
G1 X97.79747303350919 Y89.17028464274264 Z1.3475044563279854
G1 X97.22929121532736 Y90.26062732187037 Z1.3418003565062386
G1 X96.53816967398438 Y91.56530930023199 Z1.3360962566844918
G1 X95.8214477180884 Y92.60926760387571 Z1.3303921568627448
G1 X95.02478944963225 Y93.76625310946983 Z1.3246880570409978
G1 X94.21046589615885 Y94.92683571876944 Z1.318983957219251
G1 X93.4717113679692 Y95.97521108001962 Z1.3132798573975042
G1 X92.64705421690567 Y96.86801510655606 Z1.3075757575757572
G1 X91.75189134961546 Y97.83328415933283 Z1.3018716577540106
G1 X90.83921967715426 Y98.80146492057645 Z1.2961675579322636
G1 X89.94841536381682 Y99.73397357709067 Z1.2904634581105168
G1 X89.13113037148602 Y100.43563945962127 Z1.2847593582887697
G1 X88.06897452153802 Y101.33269826824106 Z1.279055258467023
G1 X87.1186340312038 Y101.96092558460231 Z1.273351158645276
G1 X86.104453936065 Y102.7702212128175 Z1.2676470588235291
G1 X85.16307018737692 Y103.15950776018059 Z1.2619429590017823
G1 X84.11702458853503 Y103.79817460218042 Z1.2562388591800353
G1 X82.81473289053672 Y104.33043728251516 Z1.2505347593582885
G1 X82.08421341001726 Y104.79772700214133 Z1.2448306595365415
G1 X80.91427270545594 Y105.08272400369734 Z1.2391265597147947
G1 X79.75766485893587 Y105.339356997729 Z1.2334224598930477
G1 X78.38252803549102 Y105.76895731668513 Z1.227718360071301
G1 X77.38477228023334 Y105.95149364896912 Z1.222014260249554
G1 X76.38475732944666 Y105.97256995780589 Z1.2163101604278073
G1 X75.19180223580605 Y105.99693354159773 Z1.2106060606060605
G1 X74.18831168831169 Y106.0 Z1.2049019607843134
G1 X73.37662337662337 Y106.0 Z1.1991978609625664
G1 X72.56493506493507 Y106.0 Z1.1934937611408196
G1 X71.75324675324676 Y106.0 Z1.1877896613190728
G1 X70.94155844155844 Y106.0 Z1.1820855614973258
G1 X70.12987012987013 Y106.0 Z1.1763814616755792
G1 X69.31818181818181 Y106.0 Z1.1706773618538322
G1 X68.50649350649351 Y106.0 Z1.1649732620320852
G1 X67.6948051948052 Y106.0 Z1.1592691622103384
G1 X66.88311688311688 Y106.0 Z1.1535650623885916
G1 X66.07142857142857 Y106.0 Z1.1478609625668446
G1 X65.25974025974025 Y106.0 Z1.1421568627450978
G1 X64.44805194805194 Y106.0 Z1.136452762923351
G1 X63.63636363636363 Y106.0 Z1.130748663101604
G1 X62.824675324675326 Y106.0 Z1.1250445632798571
G1 X62.01298701298701 Y106.0 Z1.1193404634581103
G1 X61.201298701298704 Y106.0 Z1.1136363636363633
G1 X60.38961038961039 Y106.0 Z1.1079322638146163
G1 X59.577922077922075 Y106.0 Z1.1022281639928697
G1 X58.76623376623377 Y106.0 Z1.0965240641711227
G1 X57.95454545454545 Y106.0 Z1.090819964349376
G1 X57.14285714285714 Y106.0 Z1.085115864527629
G1 X56.33116883116883 Y106.0 Z1.079411764705882
G1 X55.51948051948052 Y106.0 Z1.073707664884135
G1 X54.70779220779221 Y106.0 Z1.0680035650623882
G1 X53.896103896103895 Y106.0 Z1.0622994652406414
G1 X53.08441558441558 Y106.0 Z1.0565953654188944
G1 X52.27272727272727 Y106.0 Z1.0508912655971476
G1 X51.46103896103896 Y106.0 Z1.0451871657754008
G1 X50.64935064935065 Y106.0 Z1.039483065953654
G1 X49.83766233766234 Y106.0 Z1.033778966131907
G1 X49.02597402597402 Y106.0 Z1.02807486631016
G1 X48.214285714285715 Y106.0 Z1.0223707664884132
G1 X47.4025974025974 Y106.0 Z1.0166666666666664
G1 X46.59090909090909 Y106.0 Z1.0109625668449196
G1 X45.77922077922078 Y106.0 Z1.0052584670231726
G1 X44.967532467532465 Y106.0 Z0.9995543672014258
G1 X43.38175652807348 Y105.94985616166747 Z0.993850267379679
G1 X41.02691790901347 Y105.5344745325945 Z0.9881461675579319
G1 X38.67449017772195 Y104.5952160700309 Z0.9824420677361851
G1 X36.745503543211406 Y102.60686483048427 Z0.9767379679144381
G1 X35.56739987545943 Y99.85300233512757 Z0.9710338680926913
G1 X35.098724086314064 Y97.30063719113178 Z0.9653297682709445
G1 X35.078400691894075 Y94.8821738066884 Z0.9596256684491975
G1 X35.5369636503623 Y92.92523816751914 Z0.9539215686274507
G1 X35.92819249114105 Y91.14326648310653 Z0.9482174688057039
G1 X36.40163840448641 Y89.45292740308686 Z0.9425133689839569
G1 X36.71284958607218 Y88.10370986856609 Z0.9368092691622101
G1 X37.05098905383706 Y86.64918908532985 Z0.9311051693404631
G1 X37.42453579988731 Y85.37719748588336 Z0.9254010695187163
G1 X37.67929752326685 Y84.3136381916543 Z0.9196969696969695
G1 X38.0071490345079 Y83.55200482306667 Z0.9139928698752227
G1 X38.253569668613636 Y82.84418184055738 Z0.9082887700534756
G1 X38.3089926384321 Y82.50151396747191 Z0.9025846702317288
G1 X38.64822075554995 Y83.3811063688691 Z0.8968805704099818
G1 X40.62529632044918 Y84.75952246337332 Z0.891176470588235
G1 X43.35722591882658 Y85.25535090428933 Z0.8854723707664882
G1 X44.510134124361976 Y85.19068828420791 Z0.8797682709447412
G1 X44.65415474208933 Y85.25006305141756 Z0.8740641711229944
G1 X44.252663027595304 Y85.92272658530368 Z0.8683600713012476
G1 X43.52214354707582 Y86.70154278468063 Z0.8626559714795006
G1 X42.72591732364145 Y87.55291032755711 Z0.8569518716577538
G1 X41.88720568369649 Y88.44619550891092 Z0.8512477718360068
G1 X41.15668620317701 Y89.22501170828787 Z0.84554367201426
G1 X40.35220669014128 Y89.92296024767926 Z0.8398395721925132
G1 X39.543678218625274 Y90.77799999160013 Z0.8341354723707661
G1 X38.730882896284356 Y91.63428510357042 Z0.8284313725490193
G1 X37.91359790395355 Y92.33595098610104 Z0.8227272727272725
G1 X36.99517230127091 Y93.11915013365777 Z0.8170231729055257
G1 X36.1630581115958 Y93.82342101821166 Z0.8113190730837787
G1 X35.17058208315186 Y94.48429007058361 Z0.8056149732620317
G1 X34.321740804277376 Y95.0320660999893 Z0.7999108734402849
G1 X33.2961870704938 Y95.83863548603729 Z0.7942067736185381
G1 X32.30972820745916 Y96.24810437797358 Z0.7885026737967913
G1 X31.401101249481002 Y96.80752865994641 Z0.7827985739750443
G1 X30.103632679804146 Y97.33389698202872 Z0.7770944741532975
G1 X29.1316011253233 Y97.70538481377682 Z0.7713903743315504
G1 X27.78599065100034 Y98.18034331698243 Z0.7656862745098036
G1 X26.617782386265425 Y98.41584788143642 Z0.7599821746880568
G1 X25.248393693082996 Y98.65169768366258 Z0.7542780748663098
G1 X23.863636363636363 Y98.67912772585669 Z0.748573975044563
G1 X22.668930235092382 Y98.66689002507758 Z0.7428698752228162
G1 X21.1094903410073 Y98.41584788143642 Z0.7371657754010692
G1 X19.768860490093953 Y98.1334801557517 Z0.7314616755793224
G1 X18.466985012954787 Y97.8134393971477 Z0.7257575757575754
G1 X17.174316435462263 Y97.1369947632672 Z0.7200534759358286
G1 X15.800231370009035 Y96.35692331828336 Z0.7143493761140818
G1 X14.508360683804172 Y95.553987187355 Z0.7086452762923348
G1 X13.54771957538411 Y94.74345734028167 Z0.702941176470588
G1 X12.488702400767814 Y93.6612780046886 Z0.6972370766488412
G1 X11.472807135456899 Y92.57803290674262 Z0.6915329768270944
G1 X10.586730190472359 Y91.61384036350871 Z0.6858288770053473
G1 X9.8479756622827 Y90.56546500225853 Z0.6801247771836005
G1 X9.033652108809306 Y89.40488239295894 Z0.6744206773618537
G1 X8.2684430535661 Y88.29721774542851 Z0.6687165775401067
G1 X7.486228851890674 Y87.1466013089646 Z0.6630124777183597
G1 X6.918047033708856 Y86.05625862983688 Z0.6573083778966129
G1 X6.151078414837668 Y84.75572633988044 Z0.6516042780748659
G1 X5.610585001760913 Y83.40700758917693 Z0.6459001782531191
G1 X4.911095254986789 Y82.37159030895941 Z0.6401960784313723
G1 X4.3532264563663645 Y80.97424080045974 Z0.6344919786096253
G1 X3.785044638184546 Y79.88389812133201 Z0.6287878787878785
G1 X3.215171993038785 Y78.4454404043513 Z0.6230837789661317
G1 X2.7281590060257983 Y77.19933448534817 Z0.6173796791443849
G1 X2.2038481078167598 Y75.86009946433377 Z0.6116755793226378
G1 X1.7168351208037702 Y74.61399354533066 Z0.605971479500891
G1 X1.1950787232526734 Y73.27681557373971 Z0.6002673796791442
G1 X0.6757329949680706 Y71.94170206496851 Z0.5945632798573974
G1 X0.1887200079550837 Y70.6955961459654 Z0.5888591800356504
G1 X-0.2471846055517677 Y69.20678297735537 Z0.5831550802139036
G1 X-0.6809496355692337 Y67.72002520349331 Z0.5774509803921564
G1 X-1.1938707820120973 Y66.39107150043131 Z0.5717468805704096
G1 X-1.6152616520423733 Y64.93735816817299 Z0.5660427807486628
G1 X-2.0211058078865274 Y63.53548900929449 Z0.560338680926916
G1 X-2.464357839460182 Y62.00122280690337 Z0.554634581105169
G1 X-2.8029070500590465 Y60.54707259691314 Z0.5489304812834221
G1 X-3.2222153489927567 Y59.0925518136769 Z0.5432263814616753
G1 X-3.5599355675009807 Y57.63767002589676 Z0.5375222816399283
G1 X-3.914366769777313 Y56.10617629781751 Z0.5318181818181815
G1 X-4.250378937430384 Y54.65112604025795 Z0.5261140819964347
G1 X-4.585948925561189 Y53.19577297911658 Z0.5204099821746879
G1 X-4.772001178031854 Y51.51190697968525 Z0.5147058823529409
G1 X-5.1058758518277045 Y50.05659883465755 Z0.5090017825311941
G1 X-5.376185553518907 Y48.47871798009708 Z0.5032976827094473
G1 X-5.545606866137484 Y46.86764778224449 Z0.4975935828877005
G1 X-5.8135913285254315 Y45.24096016837106 Z0.49188948306595326
G1 X-5.912989038802635 Y43.4111275319154 Z0.48618538324420646
G1 X-5.997744630173511 Y41.42428777859109 Z0.48048128342245944
G1 X-5.933340661337756 Y39.139262185801584 Z0.47477718360071264
G1 X-5.560313035857373 Y36.670392692322366 Z0.46907308377896584
G1 X-4.44558195581239 Y34.05855621587363 Z0.46336898395721904
G1 X-2.1733529486800744 Y31.769632241379668 Z0.457664884135472
G1 X1.3471565634942397 Y30.508313165595627 Z0.4519607843137252
G1 X4.357035137529843 Y30.914848140605194 Z0.4462566844919784
G1 X6.48227008064984 Y31.852907477125232 Z0.4405525846702314
G1 X8.009211137394924 Y32.95124385413419 Z0.4348484848484846
G1 X9.16834944833113 Y33.68367626778733 Z0.4291443850267378
G1 X10.119011220056391 Y34.49691233406544 Z0.423440285204991
G1 X10.932406606826163 Y35.352343902500635 Z0.417736185383244
G1 X11.85473815122896 Y36.320159631275985 Z0.4120320855614972
G1 X12.655380449228138 Y37.17247762975376 Z0.40632798573974993
G1 X13.38589992974762 Y37.951293829130705 Z0.40062388591800313
G1 X14.116419410267095 Y38.73011002850765 Z0.39491978609625633
G1 X14.846938890786577 Y39.5089262278846 Z0.38921568627450953
G1 X15.577458371306058 Y40.28774242726155 Z0.3835115864527625
G1 X16.41175393668621 Y41.18007715301407 Z0.3778074866310157
G1 X17.07656667429079 Y41.88634200889146 Z0.3721033868092689
G1 X17.910309747659984 Y42.78022254497076 Z0.3663992869875221
G1 X18.494777255404944 Y43.641782490630696 Z0.3606951871657751
G1 X19.32791326573927 Y44.381443600394626 Z0.3549910873440283
G1 X19.913245109942906 Y45.242563777217335 Z0.3492869875222815
G1 X20.53661060804637 Y45.747844662870115 Z0.34358288770053447
G1 X21.254517515145203 Y46.75704728813847 Z0.33787878787878767
G1 X21.87733560680204 Y47.26398063734621 Z0.33217468805704087
G1 X22.677216024940137 Y48.116871603907036 Z0.32647058823529407
G1 X23.2255833135179 Y48.706323241417316 Z0.3207664884135468
G1 X24.030062826553632 Y49.560035020684076 Z0.3150623885918
G1 X24.68662227455686 Y50.26395564017121 Z0.309358288770053
G1 X25.339132764079814 Y50.81078505512883 Z0.3036541889483062
G1 X25.98737640277787 Y51.512132341912434 Z0.2979500891265594
G1 X26.631130371486027 Y52.056572378384935 Z0.2922459893048126
G1 X27.228713542468213 Y52.56495671568089 Z0.2865418894830656
G1 X27.719071980420946 Y52.9971320409915 Z0.2808377896613188
G1 X28.30141892960272 Y53.511991517685594 Z0.275133689839572
G1 X28.842625772848113 Y53.79883992159202 Z0.2694295900178252
G1 X29.36436838022561 Y54.09501556613148 Z0.26372549019607816
G1 X29.72474396367187 Y54.336989322308035 Z0.25802139037433136
G1 X30.075678521851554 Y54.464674910817536 Z0.25231729055258456
G1 X30.206955248233577 Y54.581082099012505 Z0.24661319073083754
G1 X30.090810024647876 Y54.604138012305576 Z0.24090909090909074
G1 X29.936789318354187 Y54.6202614272561 Z0.23520499108734372
G1 X29.61881634630408 Y54.68567196284663 Z0.2295008912655967
G1 X29.43817021665979 Y54.76880359096599 Z0.2237967914438499
G1 X29.327155875537915 Y54.817453269994274 Z0.2180926916221031
G1 X29.49119530648231 Y54.66555046357173 Z0.21238859180035607
G1 X29.68166174213105 Y54.467063971478694 Z0.20668449197860927
G1 X29.98058308060798 Y54.009051274156526 Z0.20098039215686248
G1 X30.42481325688332 Y53.40743846836642 Z0.19527629233511568
G1 X30.82919734196235 Y52.46801046493696 Z0.18957219251336865
G1 X31.159024439214463 Y51.56449251026937 Z0.18386809269162185
G1 X31.65311557473295 Y50.502711515085934 Z0.17816399286987505
G1 X32.040608783799314 Y49.53720894516218 Z0.17245989304812825
G1 X32.33830535061822 Y48.21996750971761 Z0.16675579322638123
G1 X32.77040661819355 Y47.161340900870464 Z0.16105169340463443
G1 X32.97908335230594 Y45.73610862246017 Z0.15534759358288763
G1 X33.3849275081501 Y44.33423946358167 Z0.1496434937611404
G1 X33.662092863796516 Y43.13681240090825 Z0.1439393939393936
G1 X33.98676818847184 Y41.73494324202975 Z0.1382352941176468
G1 X34.30048264478161 Y40.38542630974139 Z0.13253119429589977
G1 X34.519926417714345 Y38.95198277277531 Z0.12682709447415297
G1 X34.76343291122083 Y37.394350374021414 Z0.12112299465240617
G1 X35.06721538373195 Y36.11376511038249 Z0.11541889483065915
G1 X35.24111569810973 Y34.48718664227031 Z0.10971479500891235
G1 X35.565791022785056 Y33.0853174833918 Z0.10401069518716555
G1 X35.70839529882062 Y31.648599065482358 Z0.09830659536541875
G1 X36.052804009798045 Y30.125815925759404 Z0.09260249554367173
G1 X36.254700926688486 Y28.84621373414754 Z0.08689839572192493
G1 X36.38237842376062 Y27.65419573453091 Z0.08119429590017813
G1 X36.699109439726975 Y26.862741685442487 Z0.0754901960784311
G1 X36.66205614877543 Y25.838600323583083 Z0.06978609625668453
G1 X36.34132226468027 Y24.9347937790665 Z0.06408199643493706
G1 X35.93019964677509 Y24.430291415111785 Z0.05837789661319048
G1 X35.564237718206364 Y23.523650866202924 Z0.05267379679144346
G1 X35.11452264238943 Y22.370674049211114 Z0.04696969696969644
G1 X34.590211744180394 Y21.0314390281967 Z0.04126559714794986
G1 X34.103198757167405 Y19.78533310919358 Z0.03556149732620284
G1 X33.616185770154416 Y18.539227190190463 Z0.029857397504455818
G1 X33.12917278314143 Y17.293121271187353 Z0.02415329768270924
G1 X32.64215979612845 Y16.04701535218424 Z0.01844919786096222
G1 X32.15514680911546 Y14.800909433181118 Z0.012745098039215641
G1 X31.66813382210247 Y13.554803514178003 Z0.007040998217468619
G1 X31.181120835089484 Y12.308697595174893 Z0.0013368983957215974
G1 X30.694107848076502 Y11.062591676171778 Z-0.00436720142602498
G1 X30.10365050439944 Y9.53065236135246 Z-0.010071301247772002
G1 X29.46173466535737 Y7.7338901435710525 Z-0.015775401069519024
G1 X28.85755395601153 Y5.797605786612052 Z-0.021479500891266046
G1 X28.66755534405405 Y3.263961402176224 Z-0.027183600713013067
G1 X28.96039066711817 Y1.1941519258326583 Z-0.032887700534759645
G1 X29.870326105635254 Y-1.5743733366921457 Z-0.03859180035650667
G1 X31.70507883591267 Y-3.9729091258305917 Z-0.044295900178253245
G1 X33.34090758012323 Y-5.274292619290337 Z-0.05 F20
G1 X35.88221761373457 Y-5.892483395455116 F100
G1 X37.824675324675326 Y-6.0
G1 X38.63636363636363 Y-5.999999999999999
G1 X39.44805194805195 Y-6.0
G1 X40.25974025974026 Y-5.999999999999999
G1 X41.07142857142857 Y-6.0
G1 X41.883116883116884 Y-6.0
G1 X42.69480519480519 Y-5.999999999999999
G1 X43.506493506493506 Y-6.0
G1 X44.31818181818182 Y-6.0
G1 X45.12987012987013 Y-6.0
G1 X45.94155844155844 Y-6.0
G1 X46.753246753246756 Y-5.999999999999999
G1 X47.564935064935064 Y-6.0
G1 X48.37662337662338 Y-6.0
G1 X49.188311688311686 Y-5.999999999999999
G1 X50.0 Y-6.0
G1 X50.811688311688314 Y-5.999999999999999
G1 X51.62337662337662 Y-6.0
G1 X52.435064935064936 Y-6.0
G1 X53.246753246753244 Y-5.999999999999999
G1 X54.05844155844156 Y-6.0
G1 X54.87012987012987 Y-5.999999999999999
G1 X55.68181818181818 Y-6.0
G1 X56.493506493506494 Y-6.0
G1 X57.3051948051948 Y-5.999999999999999
G1 X58.116883116883116 Y-6.0
G1 X58.92857142857143 Y-5.999999999999999
G1 X59.74025974025974 Y-6.0
G1 X60.55194805194805 Y-6.0
G1 X61.36363636363636 Y-5.999999999999999
G1 X62.175324675324674 Y-5.999999999999999
G1 X62.98701298701299 Y-5.999999999999999
G1 X63.798701298701296 Y-6.0
G1 X64.6103896103896 Y-6.0
G1 X65.42207792207792 Y-6.0
G1 X66.23376623376623 Y-5.999999999999999
G1 X67.04545454545455 Y-6.0
G1 X67.85714285714286 Y-6.0
G1 X68.66883116883116 Y-6.0
G1 X69.48051948051948 Y-6.0
G1 X70.29220779220779 Y-6.000000000000001
G1 X71.1038961038961 Y-6.0
G1 X71.91558441558442 Y-6.0
G1 X72.72727272727272 Y-6.0
G1 X73.53896103896103 Y-6.0
G1 X74.35064935064935 Y-6.0
G1 X75.16233766233766 Y-6.0
G1 X75.97402597402598 Y-6.0
G1 X76.78571428571429 Y-6.0
G1 X77.59740259740259 Y-6.0
G1 X78.4090909090909 Y-6.0
G1 X79.22077922077922 Y-6.000000000000001
G1 X80.03246753246754 Y-6.0
G1 X80.84415584415585 Y-6.0
G1 X81.65584415584415 Y-6.0
G1 X82.46753246753246 Y-6.0
G1 X83.27922077922078 Y-6.000000000000001
G1 X84.0909090909091 Y-6.0
G1 X84.90259740259741 Y-6.0
G1 X85.71428571428571 Y-6.0
G1 X86.52597402597402 Y-6.0
G1 X87.33766233766234 Y-6.000000000000001
G1 X88.14935064935065 Y-6.0
G1 X88.96103896103897 Y-6.0
G1 X89.77272727272727 Y-6.0
G1 X90.77621782022162 Y-5.9969335415977225
G1 X92.54534139069497 Y-5.888909337137567
G1 X94.84124550001982 Y-5.391189456664968
G1 X97.21886944378714 Y-4.12969270581008
G1 X98.82279109727737 Y-2.269603839429358
G1 X99.8310994792102 Y0.011308415947631545
G1 X100.21268417676131 Y2.253341898928415
G1 X100.56042130637316 Y4.149008641977957
G1 X100.74956217689552 Y5.882652736413818
G1 X100.99306867040202 Y7.284521895292324
G1 X101.15540633273969 Y8.842154294046217
G1 X101.39891282624617 Y10.244023452924722
G1 X101.56312683628612 Y11.815457575760622
G1 X101.8066333297926 Y13.217326734639126
G1 X101.96897099213027 Y14.77495913339302
G1 X102.21247748563677 Y16.332591532146914
G1 X102.37659854474879 Y17.903570114443763
G1 X102.62010503825528 Y19.305439273322268
G1 X102.78244270059294 Y20.863071672076167
G1 X103.02594919409944 Y22.420704070830062
G1 X103.18998331668706 Y23.991249106082545
G1 X103.43348981019355 Y25.54888150483644
G1 X103.59413101228125 Y27.093601267091742
G1 X103.83763750578774 Y28.651233665845638
G1 X103.9999751681254 Y30.20886606459953
G1 X104.2434816616319 Y31.610735223478038
G1 X104.40581932396957 Y33.16836762223192
G1 X104.64932581747605 Y34.726000020985815
G1 X104.81976913257812 Y36.34743949230089
G1 X105.06327562608462 Y37.90507189105479
G1 X105.23159912457164 Y39.51375785378539
G1 X105.3994953495402 Y41.122592322046316
G1 X105.57165395795103 Y42.78303109268287
G1 X105.73824749868693 Y44.392245787482096
G1 X105.82660471880183 Y46.05334500855813
G1 X105.91318188100306 Y47.714771255726106
G1 X105.99796441683948 Y49.376432149058445
G1 X105.99909504054396 Y50.98613761917022
G1 X106.0 Y52.64797507788162
G1 X105.99909504054398 Y54.309812536593014
G1 X105.99638261705608 Y55.97155576500791
G1 X105.91070124453596 Y57.63311095828311
G1 X105.81941632985577 Y59.346071969527245
G1 X105.64812947568726 Y61.00675324454287
G1 X105.47510561807813 Y62.66692750447005
G1 X105.21920409590784 Y64.32650790326323
G1 X105.04063158176352 Y65.999939175745
G1 X104.77807969820014 Y67.67630028448754
G1 X104.52228137449346 Y69.30346894062032
G1 X104.18407465120355 Y70.77688680421714
G1 X103.83319793860848 Y72.305553244858
G1 X103.47876673633215 Y73.83704697293726
G1 X103.20173397252348 Y75.37126101861251
G1 X102.75837830288319 Y76.90806318047721
G1 X102.33685865186915 Y78.36295827044124
G1 X101.75933194009686 Y79.88562729861337
G1 X101.27231895308388 Y81.13173321761647
G1 X100.76210073423394 Y82.8068111208622
G1 X100.19391891605213 Y83.89715379998992
G1 X99.74807342036061 Y85.39419234080637
G1 X99.00999160196626 Y86.52511075245938
G1 X98.52297861495327 Y87.77121667146251
G1 X97.79747303350919 Y89.17028464274264
G1 X97.22929121532736 Y90.26062732187037
G1 X96.53816967398438 Y91.56530930023199
G1 X95.8214477180884 Y92.60926760387571
G1 X95.02478944963225 Y93.76625310946983
G1 X94.21046589615885 Y94.92683571876944
G1 X93.4717113679692 Y95.97521108001962
G1 X92.64705421690567 Y96.86801510655606
G1 X91.75189134961546 Y97.83328415933283
G1 X90.83921967715426 Y98.80146492057645
G1 X89.94841536381682 Y99.73397357709067
G1 X89.13113037148602 Y100.43563945962127
G1 X88.06897452153802 Y101.33269826824106
G1 X87.1186340312038 Y101.96092558460231
G1 X86.104453936065 Y102.7702212128175
G1 X85.16307018737692 Y103.15950776018059
G1 X84.11702458853503 Y103.79817460218042
G1 X82.81473289053672 Y104.33043728251516
G1 X82.08421341001726 Y104.79772700214133
G1 X80.91427270545594 Y105.08272400369734
G1 X79.75766485893587 Y105.339356997729
G1 X78.38252803549102 Y105.76895731668513
G1 X77.38477228023334 Y105.95149364896912
G1 X76.38475732944666 Y105.97256995780589
G1 X75.19180223580605 Y105.99693354159773
G1 X74.18831168831169 Y106.0
G1 X73.37662337662337 Y106.0
G1 X72.56493506493507 Y106.0
G1 X71.75324675324676 Y106.0
G1 X70.94155844155844 Y106.0
G1 X70.12987012987013 Y106.0
G1 X69.31818181818181 Y106.0
G1 X68.50649350649351 Y106.0
G1 X67.6948051948052 Y106.0
G1 X66.88311688311688 Y106.0
G1 X66.07142857142857 Y106.0
G1 X65.25974025974025 Y106.0
G1 X64.44805194805194 Y106.0
G1 X63.63636363636363 Y106.0
G1 X62.824675324675326 Y106.0
G1 X62.01298701298701 Y106.0
G1 X61.201298701298704 Y106.0
G1 X60.38961038961039 Y106.0
G1 X59.577922077922075 Y106.0
G1 X58.76623376623377 Y106.0
G1 X57.95454545454545 Y106.0
G1 X57.14285714285714 Y106.0
G1 X56.33116883116883 Y106.0
G1 X55.51948051948052 Y106.0
G1 X54.70779220779221 Y106.0
G1 X53.896103896103895 Y106.0
G1 X53.08441558441558 Y106.0
G1 X52.27272727272727 Y106.0
G1 X51.46103896103896 Y106.0
G1 X50.64935064935065 Y106.0
G1 X49.83766233766234 Y106.0
G1 X49.02597402597402 Y106.0
G1 X48.214285714285715 Y106.0
G1 X47.4025974025974 Y106.0
G1 X46.59090909090909 Y106.0
G1 X45.77922077922078 Y106.0
G1 X44.967532467532465 Y106.0
G1 X43.38175652807348 Y105.94985616166747
G1 X41.02691790901347 Y105.5344745325945
G1 X38.67449017772195 Y104.5952160700309
G1 X36.745503543211406 Y102.60686483048427
G1 X35.56739987545943 Y99.85300233512757
G1 X35.098724086314064 Y97.30063719113178
G1 X35.078400691894075 Y94.8821738066884
G1 X35.5369636503623 Y92.92523816751914
G1 X35.92819249114105 Y91.14326648310653
G1 X36.40163840448641 Y89.45292740308686
G1 X36.71284958607218 Y88.10370986856609
G1 X37.05098905383706 Y86.64918908532985
G1 X37.42453579988731 Y85.37719748588336
G1 X37.67929752326685 Y84.3136381916543
G1 X38.0071490345079 Y83.55200482306667
G1 X38.253569668613636 Y82.84418184055738
G1 X38.3089926384321 Y82.50151396747191
G1 X38.64822075554995 Y83.3811063688691
G1 X40.62529632044918 Y84.75952246337332
G1 X43.35722591882658 Y85.25535090428933
G1 X44.510134124361976 Y85.19068828420791
G1 X44.65415474208933 Y85.25006305141756
G1 X44.252663027595304 Y85.92272658530368
G1 X43.52214354707582 Y86.70154278468063
G1 X42.72591732364145 Y87.55291032755711
G1 X41.88720568369649 Y88.44619550891092
G1 X41.15668620317701 Y89.22501170828787
G1 X40.35220669014128 Y89.92296024767926
G1 X39.543678218625274 Y90.77799999160013
G1 X38.730882896284356 Y91.63428510357042
G1 X37.91359790395355 Y92.33595098610104
G1 X36.99517230127091 Y93.11915013365777
G1 X36.1630581115958 Y93.82342101821166
G1 X35.17058208315186 Y94.48429007058361
G1 X34.321740804277376 Y95.0320660999893
G1 X33.2961870704938 Y95.83863548603729
G1 X32.30972820745916 Y96.24810437797358
G1 X31.401101249481002 Y96.80752865994641
G1 X30.103632679804146 Y97.33389698202872
G1 X29.1316011253233 Y97.70538481377682
G1 X27.78599065100034 Y98.18034331698243
G1 X26.617782386265425 Y98.41584788143642
G1 X25.248393693082996 Y98.65169768366258
G1 X23.863636363636363 Y98.67912772585669
G1 X22.668930235092382 Y98.66689002507758
G1 X21.1094903410073 Y98.41584788143642
G1 X19.768860490093953 Y98.1334801557517
G1 X18.466985012954787 Y97.8134393971477
G1 X17.174316435462263 Y97.1369947632672
G1 X15.800231370009035 Y96.35692331828336
G1 X14.508360683804172 Y95.553987187355
G1 X13.54771957538411 Y94.74345734028167
G1 X12.488702400767814 Y93.6612780046886
G1 X11.472807135456899 Y92.57803290674262
G1 X10.586730190472359 Y91.61384036350871
G1 X9.8479756622827 Y90.56546500225853
G1 X9.033652108809306 Y89.40488239295894
G1 X8.2684430535661 Y88.29721774542851
G1 X7.486228851890674 Y87.1466013089646
G1 X6.918047033708856 Y86.05625862983688
G1 X6.151078414837668 Y84.75572633988044
G1 X5.610585001760913 Y83.40700758917693
G1 X4.911095254986789 Y82.37159030895941
G1 X4.3532264563663645 Y80.97424080045974
G1 X3.785044638184546 Y79.88389812133201
G1 X3.215171993038785 Y78.4454404043513
G1 X2.7281590060257983 Y77.19933448534817
G1 X2.2038481078167598 Y75.86009946433377
G1 X1.7168351208037702 Y74.61399354533066
G1 X1.1950787232526734 Y73.27681557373971
G1 X0.6757329949680706 Y71.94170206496851
G1 X0.1887200079550837 Y70.6955961459654
G1 X-0.2471846055517677 Y69.20678297735537
G1 X-0.6809496355692337 Y67.72002520349331
G1 X-1.1938707820120973 Y66.39107150043131
G1 X-1.6152616520423733 Y64.93735816817299
G1 X-2.0211058078865274 Y63.53548900929449
G1 X-2.464357839460182 Y62.00122280690337
G1 X-2.8029070500590465 Y60.54707259691314
G1 X-3.2222153489927567 Y59.0925518136769
G1 X-3.5599355675009807 Y57.63767002589676
G1 X-3.914366769777313 Y56.10617629781751
G1 X-4.250378937430384 Y54.65112604025795
G1 X-4.585948925561189 Y53.19577297911658
G1 X-4.772001178031854 Y51.51190697968525
G1 X-5.1058758518277045 Y50.05659883465755
G1 X-5.376185553518907 Y48.47871798009708
G1 X-5.545606866137484 Y46.86764778224449
G1 X-5.8135913285254315 Y45.24096016837106
G1 X-5.912989038802635 Y43.4111275319154
G1 X-5.997744630173511 Y41.42428777859109
G1 X-5.933340661337756 Y39.139262185801584
G1 X-5.560313035857373 Y36.670392692322366
G1 X-4.44558195581239 Y34.05855621587363
G1 X-2.1733529486800744 Y31.769632241379668
G1 X1.3471565634942397 Y30.508313165595627
G1 X4.357035137529843 Y30.914848140605194
G1 X6.48227008064984 Y31.852907477125232
G1 X8.009211137394924 Y32.95124385413419
G1 X9.16834944833113 Y33.68367626778733
G1 X10.119011220056391 Y34.49691233406544
G1 X10.932406606826163 Y35.352343902500635
G1 X11.85473815122896 Y36.320159631275985
G1 X12.655380449228138 Y37.17247762975376
G1 X13.38589992974762 Y37.951293829130705
G1 X14.116419410267095 Y38.73011002850765
G1 X14.846938890786577 Y39.5089262278846
G1 X15.577458371306058 Y40.28774242726155
G1 X16.41175393668621 Y41.18007715301407
G1 X17.07656667429079 Y41.88634200889146
G1 X17.910309747659984 Y42.78022254497076
G1 X18.494777255404944 Y43.641782490630696
G1 X19.32791326573927 Y44.381443600394626
G1 X19.913245109942906 Y45.242563777217335
G1 X20.53661060804637 Y45.747844662870115
G1 X21.254517515145203 Y46.75704728813847
G1 X21.87733560680204 Y47.26398063734621
G1 X22.677216024940137 Y48.116871603907036
G1 X23.2255833135179 Y48.706323241417316
G1 X24.030062826553632 Y49.560035020684076
G1 X24.68662227455686 Y50.26395564017121
G1 X25.339132764079814 Y50.81078505512883
G1 X25.98737640277787 Y51.512132341912434
G1 X26.631130371486027 Y52.056572378384935
G1 X27.228713542468213 Y52.56495671568089
G1 X27.719071980420946 Y52.9971320409915
G1 X28.30141892960272 Y53.511991517685594
G1 X28.842625772848113 Y53.79883992159202
G1 X29.36436838022561 Y54.09501556613148
G1 X29.72474396367187 Y54.336989322308035
G1 X30.075678521851554 Y54.464674910817536
G1 X30.206955248233577 Y54.581082099012505
G1 X30.090810024647876 Y54.604138012305576
G1 X29.936789318354187 Y54.6202614272561
G1 X29.61881634630408 Y54.68567196284663
G1 X29.43817021665979 Y54.76880359096599
G1 X29.327155875537915 Y54.817453269994274
G1 X29.49119530648231 Y54.66555046357173
G1 X29.68166174213105 Y54.467063971478694
G1 X29.98058308060798 Y54.009051274156526
G1 X30.42481325688332 Y53.40743846836642
G1 X30.82919734196235 Y52.46801046493696
G1 X31.159024439214463 Y51.56449251026937
G1 X31.65311557473295 Y50.502711515085934
G1 X32.040608783799314 Y49.53720894516218
G1 X32.33830535061822 Y48.21996750971761
G1 X32.77040661819355 Y47.161340900870464
G1 X32.97908335230594 Y45.73610862246017
G1 X33.3849275081501 Y44.33423946358167
G1 X33.662092863796516 Y43.13681240090825
G1 X33.98676818847184 Y41.73494324202975
G1 X34.30048264478161 Y40.38542630974139
G1 X34.519926417714345 Y38.95198277277531
G1 X34.76343291122083 Y37.394350374021414
G1 X35.06721538373195 Y36.11376511038249
G1 X35.24111569810973 Y34.48718664227031
G1 X35.565791022785056 Y33.0853174833918
G1 X35.70839529882062 Y31.648599065482358
G1 X36.052804009798045 Y30.125815925759404
G1 X36.254700926688486 Y28.84621373414754
G1 X36.38237842376062 Y27.65419573453091
G1 X36.699109439726975 Y26.862741685442487
G1 X36.66205614877543 Y25.838600323583083
G1 X36.34132226468027 Y24.9347937790665
G1 X35.93019964677509 Y24.430291415111785
G1 X35.564237718206364 Y23.523650866202924
G1 X35.11452264238943 Y22.370674049211114
G1 X34.590211744180394 Y21.0314390281967
G1 X34.103198757167405 Y19.78533310919358
G1 X33.616185770154416 Y18.539227190190463
G1 X33.12917278314143 Y17.293121271187353
G1 X32.64215979612845 Y16.04701535218424
G1 X32.15514680911546 Y14.800909433181118
G1 X31.66813382210247 Y13.554803514178003
G1 X31.181120835089484 Y12.308697595174893
G1 X30.694107848076502 Y11.062591676171778
G1 X30.10365050439944 Y9.53065236135246
G1 X29.46173466535737 Y7.7338901435710525
G1 X28.85755395601153 Y5.797605786612052
G1 X28.66755534405405 Y3.263961402176224
G1 X28.96039066711817 Y1.1941519258326583
G1 X29.870326105635254 Y-1.5743733366921457
G1 X31.70507883591267 Y-3.9729091258305917
G0 X33.34090758012323 Y-5.274292619290337 Z10


(Operation: Ellipse1)
M3 S5000
G0 X195.99425548799462 Y45.26249027533663 Z10
G1 X195.99425548799462 Y45.26249027533663 Z6.35 F20
G1 X195.7773127682765 Y49.706113253221034 Z6.320776255707762 F100
G1 X195.17405815874739 Y54.11317101097095 Z6.291552511415524
G1 X194.26207705934434 Y58.200294080027916 Z6.262328767123288
G1 X192.92407684340483 Y62.44370541792735 Z6.23310502283105
G1 X191.22131591429988 Y66.55434886862716 Z6.203881278538812
G1 X189.1667543608149 Y70.50093741868008 Z6.174657534246575
G1 X186.77602990383787 Y74.25343271265174 Z6.145433789954337
G1 X184.0673388742185 Y77.78327368166539 Z6.1162100456621005
G1 X181.06129771648295 Y81.0635939279931 Z6.086986301369863
G1 X177.78078607252988 Y84.06942621113129 Z6.057762557077625
G1 X174.25077263963234 Y86.77789247897189 Z6.028538812785388
G1 X170.4981251281789 Y89.16837799770023 Z5.99931506849315
G1 X166.55140576560714 Y91.22268825507831 Z5.970091324200913
G1 X162.4406539029944 Y92.92518744288817 Z5.940867579908676
G1 X158.19715737893483 Y94.2629174645151 Z5.911643835616438
G1 X153.85321438090295 Y95.2256965618773 Z5.8824200913242
G1 X149.441887616629 Y95.80619681103121 Z5.853196347031963
G1 X144.99675266654194 Y95.99999989661593 Z5.823972602739726
G1 X140.55164243262567 Y95.80563074062543 Z5.794748858447488
G1 X136.14038962874386 Y95.22456872955237 Z5.765525114155251
G1 X131.79656927239665 Y94.26123645445148 Z5.736301369863013
G1 X127.5532431378613 Y92.92296604962402 Z5.707077625570776
G1 X123.44270811574016 Y91.21994338612743 Z5.677853881278539
G1 X119.49625039420658 Y89.16513054486529 Z5.648630136986301
G1 X115.74390733293035 Y86.77416715933225 Z5.619406392694064
G1 X112.21423884211156 Y84.06525137891592 Z5.590182648401826
G1 X108.93411000670855 Y81.05900135877032 Z5.560958904109588
G1 X105.92848661035421 Y77.77829833049192 Z5.531735159817352
G1 X103.2202451152732 Y74.24811244802213 Z5.502511415525114
G1 X100.82999854448519 Y70.49531273430121 Z5.473287671232876
G1 X98.7759395915428 Y66.5484625752117 Z5.444063926940639
G1 X97.07370215193043 Y62.437602317352095 Z5.414840182648401
G1 X95.73624233003964 Y58.19402062433669 Z5.385616438356164
G1 X94.77373982740241 Y53.8500163318797 Z5.356392694063927
G1 X94.19352046273892 Y49.438652614236695 Z5.327168949771689
G1 X94.00000041353626 Y44.99350533309693 Z5.297945205479452
G1 X94.1946526035482 Y40.548407484298636 Z5.268721461187214
G1 X94.77599549204773 Y36.1371916874396 Z5.239497716894977
G1 X95.73960435016012 Y31.793432678351394 Z5.21027397260274
G1 X97.07814493844984 Y27.550191764383786 Z5.181050228310502
G1 X98.78142932943355 Y23.439765187506524 Z5.151826484018264
G1 X100.83649345014209 Y19.493438310492387 Z5.122602739726027
G1 X103.22769575453752 Y15.7412474971246 Z5.09337899543379
G1 X105.93683627476813 Y12.211751498810916 Z5.064155251141552
G1 X108.94329514513562 Y8.931814087631203 Z5.034931506849315
G1 X112.22418954443842 Y5.926399590246357 Z5.005707762557077
G1 X115.75454786216811 Y3.2183828789049373 Z4.9764840182648395
G1 X119.50749976294165 Y0.828375265748039 Z4.947260273972603
G1 X123.45448070254724 Y-1.2254323744309747 Z4.918036529680365
G1 X127.56544933898714 Y-2.9274080589444766 Z4.888812785388128
G1 X131.80911618375373 Y-4.264597675676722 Z4.85958904109589
G1 X136.15318175302406 Y-5.2268235796867115 Z4.830365296803652
G1 X140.56458240615117 Y-5.806762057507428 Z4.801141552511416
G1 X145.0097420003218 Y-5.999999069543422 Z4.771917808219178
G1 X149.45482744598044 Y-5.80506384629921 Z4.74269406392694
G1 X153.86600621793238 Y-5.2234400827301375 Z4.713470319634703
G1 X158.20970386215077 Y-4.2595546455129725 Z4.684246575342465
G1 X162.45285953834738 Y-2.9207438791878237 Z4.655022831050228
G1 X166.56317765331593 Y-1.2171977676225696 Z4.625799086757991
G1 X170.50937366981114 Y0.8381176242005441 Z4.596575342465753
G1 X174.26141222005802 Y3.229558837763774 Z4.5673515981735155
G1 X177.79073571155706 Y5.938924086825047 Z4.538127853881278
G1 X181.07048168521573 Y8.945591795225408 Z4.508904109589041
G1 X184.0756872714463 Y12.226677552250983 Z4.479680365296804
G1 X186.7834791880691 Y15.757208290927531 Z4.450456621004566
G1 X189.17324783390512 Y19.510312363538173 Z4.421232876712328
G1 X191.22680415299405 Y23.45742406765774 Z4.392009132420091
G1 X192.9285180755084 Y27.568501066010896 Z4.362785388127854
G1 X194.26523985675482 Y31.81151496654009 Z4.333561643835616
G1 X195.17621234964682 Y35.89886225998817 Z4.304337899543379
G1 X195.77850973459886 Y40.30681951628059 Z4.275114155251141
G1 X195.9943221479635 Y44.73903642699709 Z4.2458904109589035
G1 X195.99425548799462 Y45.26249027533663 Z4.216666666666667
G1 X195.7773127682765 Y49.706113253221034 Z4.187442922374429
G1 X195.17405815874739 Y54.11317101097095 Z4.1582191780821915
G1 X194.26207705934434 Y58.200294080027916 Z4.128995433789955
G1 X192.92407684340483 Y62.44370541792735 Z4.099771689497717
G1 X191.22131591429988 Y66.55434886862716 Z4.07054794520548
G1 X189.1667543608149 Y70.50093741868008 Z4.041324200913242
G1 X186.77602990383787 Y74.25343271265174 Z4.012100456621004
G1 X184.0673388742185 Y77.78327368166539 Z3.982876712328767
G1 X181.06129771648295 Y81.0635939279931 Z3.95365296803653
G1 X177.78078607252988 Y84.06942621113129 Z3.9244292237442924
G1 X174.25077263963234 Y86.77789247897189 Z3.8952054794520548
G1 X170.4981251281789 Y89.16837799770023 Z3.8659817351598176
G1 X166.55140576560714 Y91.22268825507831 Z3.83675799086758
G1 X162.4406539029944 Y92.92518744288817 Z3.807534246575343
G1 X158.19715737893483 Y94.2629174645151 Z3.778310502283105
G1 X153.85321438090295 Y95.2256965618773 Z3.7490867579908675
G1 X149.441887616629 Y95.80619681103121 Z3.7198630136986304
G1 X144.99675266654194 Y95.99999989661593 Z3.6906392694063928
G1 X140.55164243262567 Y95.80563074062543 Z3.6614155251141556
G1 X136.14038962874386 Y95.22456872955237 Z3.632191780821918
G1 X131.79656927239665 Y94.26123645445148 Z3.6029680365296803
G1 X127.5532431378613 Y92.92296604962402 Z3.573744292237443
G1 X123.44270811574016 Y91.21994338612743 Z3.5445205479452055
G1 X119.49625039420658 Y89.16513054486529 Z3.5152968036529684
G1 X115.74390733293035 Y86.77416715933225 Z3.4860730593607308
G1 X112.21423884211156 Y84.06525137891592 Z3.456849315068493
G1 X108.93411000670855 Y81.05900135877032 Z3.427625570776256
G1 X105.92848661035421 Y77.77829833049192 Z3.3984018264840183
G1 X103.2202451152732 Y74.24811244802213 Z3.369178082191781
G1 X100.82999854448519 Y70.49531273430121 Z3.3399543378995435
G1 X98.7759395915428 Y66.5484625752117 Z3.310730593607306
G1 X97.07370215193043 Y62.437602317352095 Z3.2815068493150688
G1 X95.73624233003964 Y58.19402062433669 Z3.252283105022831
G1 X94.77373982740241 Y53.8500163318797 Z3.223059360730594
G1 X94.19352046273892 Y49.438652614236695 Z3.1938356164383563
G1 X94.00000041353626 Y44.99350533309693 Z3.1646118721461187
G1 X94.1946526035482 Y40.548407484298636 Z3.135388127853881
G1 X94.77599549204773 Y36.1371916874396 Z3.106164383561644
G1 X95.73960435016012 Y31.793432678351394 Z3.0769406392694068
G1 X97.07814493844984 Y27.550191764383786 Z3.047716894977169
G1 X98.78142932943355 Y23.439765187506524 Z3.0184931506849315
G1 X100.83649345014209 Y19.493438310492387 Z2.9892694063926943
G1 X103.22769575453752 Y15.7412474971246 Z2.9600456621004567
G1 X105.93683627476813 Y12.211751498810916 Z2.9308219178082195
G1 X108.94329514513562 Y8.931814087631203 Z2.901598173515982
G1 X112.22418954443842 Y5.926399590246357 Z2.8723744292237443
G1 X115.75454786216811 Y3.2183828789049373 Z2.8431506849315067
G1 X119.50749976294165 Y0.828375265748039 Z2.8139269406392695
G1 X123.45448070254724 Y-1.2254323744309747 Z2.7847031963470323
G1 X127.56544933898714 Y-2.9274080589444766 Z2.7554794520547947
G1 X131.80911618375373 Y-4.264597675676722 Z2.726255707762557
G1 X136.15318175302406 Y-5.2268235796867115 Z2.6970319634703195
G1 X140.56458240615117 Y-5.806762057507428 Z2.6678082191780823
G1 X145.0097420003218 Y-5.999999069543422 Z2.638584474885845
G1 X149.45482744598044 Y-5.80506384629921 Z2.6093607305936075
G1 X153.86600621793238 Y-5.2234400827301375 Z2.58013698630137
G1 X158.20970386215077 Y-4.2595546455129725 Z2.5509132420091327
G1 X162.45285953834738 Y-2.9207438791878237 Z2.521689497716895
G1 X166.56317765331593 Y-1.2171977676225696 Z2.492465753424658
G1 X170.50937366981114 Y0.8381176242005441 Z2.4632420091324203
G1 X174.26141222005802 Y3.229558837763774 Z2.4340182648401827
G1 X177.79073571155706 Y5.938924086825047 Z2.4047945205479455
G1 X181.07048168521573 Y8.945591795225408 Z2.375570776255708
G1 X184.0756872714463 Y12.226677552250983 Z2.3463470319634707
G1 X186.7834791880691 Y15.757208290927531 Z2.317123287671233
G1 X189.17324783390512 Y19.510312363538173 Z2.2878995433789955
G1 X191.22680415299405 Y23.45742406765774 Z2.258675799086758
G1 X192.9285180755084 Y27.568501066010896 Z2.2294520547945207
G1 X194.26523985675482 Y31.81151496654009 Z2.2002283105022835
G1 X195.17621234964682 Y35.89886225998817 Z2.1710045662100454
G1 X195.77850973459886 Y40.30681951628059 Z2.1417808219178083
G1 X195.9943221479635 Y44.73903642699709 Z2.112557077625571
G1 X195.99425548799462 Y45.26249027533663 Z2.083333333333333
G1 X195.7773127682765 Y49.706113253221034 Z2.0541095890410954
G1 X195.17405815874739 Y54.11317101097095 Z2.0248858447488582
G1 X194.26207705934434 Y58.200294080027916 Z1.9956621004566206
G1 X192.92407684340483 Y62.44370541792735 Z1.9664383561643832
G1 X191.22131591429988 Y66.55434886862716 Z1.9372146118721458
G1 X189.1667543608149 Y70.50093741868008 Z1.9079908675799084
G1 X186.77602990383787 Y74.25343271265174 Z1.878767123287671
G1 X184.0673388742185 Y77.78327368166539 Z1.8495433789954334
G1 X181.06129771648295 Y81.0635939279931 Z1.820319634703196
G1 X177.78078607252988 Y84.06942621113129 Z1.7910958904109586
G1 X174.25077263963234 Y86.77789247897189 Z1.7618721461187212
G1 X170.4981251281789 Y89.16837799770023 Z1.7326484018264838
G1 X166.55140576560714 Y91.22268825507831 Z1.7034246575342462
G1 X162.4406539029944 Y92.92518744288817 Z1.6742009132420088
G1 X158.19715737893483 Y94.2629174645151 Z1.6449771689497714
G1 X153.85321438090295 Y95.2256965618773 Z1.615753424657534
G1 X149.441887616629 Y95.80619681103121 Z1.5865296803652966
G1 X144.99675266654194 Y95.99999989661593 Z1.557305936073059
G1 X140.55164243262567 Y95.80563074062543 Z1.5280821917808216
G1 X136.14038962874386 Y95.22456872955237 Z1.4988584474885842
G1 X131.79656927239665 Y94.26123645445148 Z1.4696347031963468
G1 X127.5532431378613 Y92.92296604962402 Z1.4404109589041094
G1 X123.44270811574016 Y91.21994338612743 Z1.4111872146118718
G1 X119.49625039420658 Y89.16513054486529 Z1.3819634703196344
G1 X115.74390733293035 Y86.77416715933225 Z1.352739726027397
G1 X112.21423884211156 Y84.06525137891592 Z1.3235159817351594
G1 X108.93411000670855 Y81.05900135877032 Z1.2942922374429222
G1 X105.92848661035421 Y77.77829833049192 Z1.2650684931506846
G1 X103.2202451152732 Y74.24811244802213 Z1.2358447488584472
G1 X100.82999854448519 Y70.49531273430121 Z1.2066210045662098
G1 X98.7759395915428 Y66.5484625752117 Z1.1773972602739724
G1 X97.07370215193043 Y62.437602317352095 Z1.148173515981735
G1 X95.73624233003964 Y58.19402062433669 Z1.1189497716894974
G1 X94.77373982740241 Y53.8500163318797 Z1.08972602739726
G1 X94.19352046273892 Y49.438652614236695 Z1.0605022831050224
G1 X94.00000041353626 Y44.99350533309693 Z1.0312785388127852
G1 X94.1946526035482 Y40.548407484298636 Z1.0020547945205476
G1 X94.77599549204773 Y36.1371916874396 Z0.9728310502283102
G1 X95.73960435016012 Y31.793432678351394 Z0.9436073059360728
G1 X97.07814493844984 Y27.550191764383786 Z0.9143835616438354
G1 X98.78142932943355 Y23.439765187506524 Z0.8851598173515978
G1 X100.83649345014209 Y19.493438310492387 Z0.8559360730593606
G1 X103.22769575453752 Y15.7412474971246 Z0.826712328767123
G1 X105.93683627476813 Y12.211751498810916 Z0.7974885844748856
G1 X108.94329514513562 Y8.931814087631203 Z0.7682648401826482
G1 X112.22418954443842 Y5.926399590246357 Z0.7390410958904108
G1 X115.75454786216811 Y3.2183828789049373 Z0.7098173515981732
G1 X119.50749976294165 Y0.828375265748039 Z0.6805936073059358
G1 X123.45448070254724 Y-1.2254323744309747 Z0.6513698630136984
G1 X127.56544933898714 Y-2.9274080589444766 Z0.6221461187214608
G1 X131.80911618375373 Y-4.264597675676722 Z0.5929223744292236
G1 X136.15318175302406 Y-5.2268235796867115 Z0.563698630136986
G1 X140.56458240615117 Y-5.806762057507428 Z0.5344748858447486
G1 X145.0097420003218 Y-5.999999069543422 Z0.5052511415525112
G1 X149.45482744598044 Y-5.80506384629921 Z0.47602739726027377
G1 X153.86600621793238 Y-5.2234400827301375 Z0.44680365296803615
G1 X158.20970386215077 Y-4.2595546455129725 Z0.41757990867579897
G1 X162.45285953834738 Y-2.9207438791878237 Z0.38835616438356135
G1 X166.56317765331593 Y-1.2171977676225696 Z0.35913242009132396
G1 X170.50937366981114 Y0.8381176242005441 Z0.32990867579908656
G1 X174.26141222005802 Y3.229558837763774 Z0.30068493150684916
G1 X177.79073571155706 Y5.938924086825047 Z0.27146118721461177
G1 X181.07048168521573 Y8.945591795225408 Z0.24223744292237415
G1 X184.0756872714463 Y12.226677552250983 Z0.21301369863013675
G1 X186.7834791880691 Y15.757208290927531 Z0.18378995433789935
G1 X189.17324783390512 Y19.510312363538173 Z0.15456621004566173
G1 X191.22680415299405 Y23.45742406765774 Z0.12534246575342434
G1 X192.9285180755084 Y27.568501066010896 Z0.09611872146118694
G1 X194.26523985675482 Y31.81151496654009 Z0.06689497716894977
G1 X195.17621234964682 Y35.89886225998817 Z0.0376712328767117
G1 X195.77850973459886 Y40.30681951628059 Z0.008447488584474527
G1 X195.9943221479635 Y44.73903642699709 Z-0.020776255707762648
G1 X195.99425548799462 Y45.26249027533663 Z-0.05 F20
G1 X195.7773127682765 Y49.706113253221034 F100
G1 X195.17405815874739 Y54.11317101097095
G1 X194.26207705934434 Y58.200294080027916
G1 X192.92407684340483 Y62.44370541792735
G1 X191.22131591429988 Y66.55434886862716
G1 X189.1667543608149 Y70.50093741868008
G1 X186.77602990383787 Y74.25343271265174
G1 X184.0673388742185 Y77.78327368166539
G1 X181.06129771648295 Y81.0635939279931
G1 X177.78078607252988 Y84.06942621113129
G1 X174.25077263963234 Y86.77789247897189
G1 X170.4981251281789 Y89.16837799770023
G1 X166.55140576560714 Y91.22268825507831
G1 X162.4406539029944 Y92.92518744288817
G1 X158.19715737893483 Y94.2629174645151
G1 X153.85321438090295 Y95.2256965618773
G1 X149.441887616629 Y95.80619681103121
G1 X144.99675266654194 Y95.99999989661593
G1 X140.55164243262567 Y95.80563074062543
G1 X136.14038962874386 Y95.22456872955237
G1 X131.79656927239665 Y94.26123645445148
G1 X127.5532431378613 Y92.92296604962402
G1 X123.44270811574016 Y91.21994338612743
G1 X119.49625039420658 Y89.16513054486529
G1 X115.74390733293035 Y86.77416715933225
G1 X112.21423884211156 Y84.06525137891592
G1 X108.93411000670855 Y81.05900135877032
G1 X105.92848661035421 Y77.77829833049192
G1 X103.2202451152732 Y74.24811244802213
G1 X100.82999854448519 Y70.49531273430121
G1 X98.7759395915428 Y66.5484625752117
G1 X97.07370215193043 Y62.437602317352095
G1 X95.73624233003964 Y58.19402062433669
G1 X94.77373982740241 Y53.8500163318797
G1 X94.19352046273892 Y49.438652614236695
G1 X94.00000041353626 Y44.99350533309693
G1 X94.1946526035482 Y40.548407484298636
G1 X94.77599549204773 Y36.1371916874396
G1 X95.73960435016012 Y31.793432678351394
G1 X97.07814493844984 Y27.550191764383786
G1 X98.78142932943355 Y23.439765187506524
G1 X100.83649345014209 Y19.493438310492387
G1 X103.22769575453752 Y15.7412474971246
G1 X105.93683627476813 Y12.211751498810916
G1 X108.94329514513562 Y8.931814087631203
G1 X112.22418954443842 Y5.926399590246357
G1 X115.75454786216811 Y3.2183828789049373
G1 X119.50749976294165 Y0.828375265748039
G1 X123.45448070254724 Y-1.2254323744309747
G1 X127.56544933898714 Y-2.9274080589444766
G1 X131.80911618375373 Y-4.264597675676722
G1 X136.15318175302406 Y-5.2268235796867115
G1 X140.56458240615117 Y-5.806762057507428
G1 X145.0097420003218 Y-5.999999069543422
G1 X149.45482744598044 Y-5.80506384629921
G1 X153.86600621793238 Y-5.2234400827301375
G1 X158.20970386215077 Y-4.2595546455129725
G1 X162.45285953834738 Y-2.9207438791878237
G1 X166.56317765331593 Y-1.2171977676225696
G1 X170.50937366981114 Y0.8381176242005441
G1 X174.26141222005802 Y3.229558837763774
G1 X177.79073571155706 Y5.938924086825047
G1 X181.07048168521573 Y8.945591795225408
G1 X184.0756872714463 Y12.226677552250983
G1 X186.7834791880691 Y15.757208290927531
G1 X189.17324783390512 Y19.510312363538173
G1 X191.22680415299405 Y23.45742406765774
G1 X192.9285180755084 Y27.568501066010896
G1 X194.26523985675482 Y31.81151496654009
G1 X195.17621234964682 Y35.89886225998817
G1 X195.77850973459886 Y40.30681951628059
G1 X195.9943221479635 Y44.73903642699709
G0 X195.99425548799462 Y45.26249027533663 Z10


(Operation: Rectangle1)
M3 S5000
G0 X-6 Y104 Z10
G1 X-6 Y104 Z6.35 F20
G1 X96 Y104 Z5.923333333333333 F100
G1 X96 Y206 Z5.496666666666666
G1 X-6 Y206 Z5.069999999999999
G1 X-6 Y104 Z4.643333333333333
G1 X-6 Y104 Z4.216666666666667
G1 X96 Y104 Z3.79
G1 X96 Y206 Z3.3633333333333333
G1 X-6 Y206 Z2.9366666666666665
G1 X-6 Y104 Z2.5100000000000002
G1 X-6 Y104 Z2.083333333333333
G1 X96 Y104 Z1.6566666666666663
G1 X96 Y206 Z1.2299999999999998
G1 X-6 Y206 Z0.803333333333333
G1 X-6 Y104 Z0.3766666666666665
G1 X-6 Y104 Z-0.05 F20
G1 X96 Y104 F100
G1 X96 Y206
G1 X-6 Y206
G1 X-6 Y104
G0 X-6 Y104 Z10


(Operation: HolePath1)
M3 S5000
G0 X150 Y150 Z10
G1 X150 Y150 Z-0.05 F20
G0 X150 Y150 Z10
G0 X110 Y150 Z10
G1 X110 Y150 Z-0.05 F20
G0 X110 Y150 Z10
G0 X190 Y150 Z10
G1 X190 Y150 Z-0.05 F20
G0 X190 Y150 Z10
G0 X150 Y190 Z10
G1 X150 Y190 Z-0.05 F20
G0 X150 Y190 Z10
G0 X150 Y110 Z10
G1 X150 Y110 Z-0.05 F20
G0 X150 Y110 Z10


M30
%
